; generated by PrusaSlicer 2.6.0 on 2023-08-11 at 10:04:09 UTC


;
;
; 

; external perimeters extrusion width = 0.60mm
; perimeters extrusion width = 0.50mm
; infill extrusion width = 0.50mm
; solid infill extrusion width = 0.50mm
; top infill extrusion width = 0.45mm
; first layer extrusion width = 0.42mm

M73 P0 R9
M73 Q0 S9
M201 X1000 Y1000 Z200 E5000 ; sets maximum accelerations, mm/sec^2
M203 X200 Y200 Z12 E120 ; sets maximum feedrates, mm / sec
M204 S1250 T1250 ; sets acceleration (S) and retract acceleration (R), mm/sec^2
M205 X8.00 Y8.00 Z0.40 E4.50 ; sets the jerk limits, mm/sec
M205 S0 T0 ; sets the minimum extruding and travel feed rate, mm/sec
;TYPE:Custom
M862.3 P "MK3S" ; printer model check
M862.1 P0.4 ; nozzle diameter check
M115 U3.12.2 ; tell printer latest fw version
G90 ; use absolute coordinates
M83 ; extruder relative mode
M104 S240 ; set extruder temp
M140 S95 ; set bed temp
M190 S95 ; wait for bed temp
M109 S240 ; wait for extruder temp
G28 W ; home all without mesh bed level
G80 ; mesh bed leveling

G1 Z0.2 F720
G1 Y-3 F1000 ; go outside print area
G92 E0
G1 X60 E9 F1000 ; intro line
G1 X100 E12.5 F1000 ; intro line

G92 E0
M221 S95

; Don't change E values below. Excessive value can damage the printer.

M907 E538 ; set extruder motor current
G21 ; set units to millimeters
G90 ; use absolute coordinates
M83 ; use relative distances for extrusion
M900 K0.08 ; Filament gcode LA 1.5
M900 K45 ; Filament gcode LA 1.0
M107 ; disable fan
;LAYER_CHANGE
;Z:0.3
;HEIGHT:0.3
;BEFORE_LAYER_CHANGE
G92 E0.0
;0.3


G1 E-1.4 F2100 ; retract
M73 P1 R9
M73 Q1 S9
G1 Z.2 F720 ; lift Z
G1 Z.3 ; move to next layer (0)
;AFTER_LAYER_CHANGE
;0.3
G1 Z.5 ; lift Z
G1 X89.322 Y93.7 F10800 ; move to first skirt point
G1 Z.3 F720 ; restore layer Z
G1 E1.4 F2100 ;  ; unretract
M204 S800 ; adjust acceleration
;TYPE:Skirt/Brim
;WIDTH:0.42
G1 F1200
G1 X90.367 Y92.831 E.06028 ; skirt
G1 X91.185 Y92.647 E.03719 ; skirt
G1 X137.458 Y90.647 E2.05435 ; skirt
G1 X158.714 Y90.644 E.94281 ; skirt
G1 X160.014 Y91.036 E.06023 ; skirt
G1 X160.882 Y92.08 E.06022 ; skirt
G1 X161.069 Y93 E.04164 ; skirt
G1 X161.069 Y117 E1.06452 ; skirt
G1 X160.678 Y118.3 E.06021 ; skirt
M73 P2 R9
M73 Q2 S9
G1 X159.633 Y119.169 E.06028 ; skirt
G1 X158.714 Y119.356 E.0416 ; skirt
G1 X137.458 Y119.353 E.94281 ; skirt
G1 X91.185 Y117.353 E2.05435 ; skirt
G1 X89.902 Y116.906 E.06026 ; skirt
G1 X89.08 Y115.825 E.06024 ; skirt
G1 X88.931 Y115 E.03718 ; skirt
G1 X88.931 Y95 E.8871 ; skirt
G1 X89.305 Y93.757 E.05757 ; skirt
M204 S1000 ; adjust acceleration
; printing object 2230_to_2280.stl id:0 copy 0
;WIPE_START
M73 Q3 S9
G1 F8640
G1 X90.367 Y92.831 E-.32535 ; wipe and retract
G1 X91.185 Y92.647 E-.1936 ; wipe and retract
G1 X94.997 Y92.482 E-.88105 ; wipe and retract
;WIPE_END
G1 Z.5 F720 ; lift Z
M73 P3 R9
G1 X92.052 Y95.766 F10800 ; move to first perimeter point
G1 Z.3 F720 ; restore layer Z
G1 E1.4 F2100 ;  ; unretract
M204 S800 ; adjust acceleration
;TYPE:Perimeter
;WIDTH:0.42
G1 F1200
G1 X137.792 Y95.766 E2.02879 ; perimeter
G1 X138.063 Y95.692 E.01246 ; perimeter
G1 X138.25 Y95.505 E.01173 ; perimeter
G1 X138.326 Y95.232 E.01257 ; perimeter
G1 X138.326 Y93.766 E.06502 ; perimeter
G1 X157.948 Y93.766 E.87033 ; perimeter
G1 X157.948 Y116.234 E.99656 ; perimeter
G1 X138.326 Y116.234 E.87033 ; perimeter
G1 X138.326 Y114.768 E.06502 ; perimeter
M73 P4 R9
M73 Q4 S9
G1 X138.25 Y114.495 E.01257 ; perimeter
G1 X138.063 Y114.308 E.01173 ; perimeter
G1 X137.792 Y114.234 E.01246 ; perimeter
G1 X92.052 Y114.234 E2.02879 ; perimeter
G1 X92.052 Y107.161 E.31372 ; perimeter
G1 X92.21 Y107.133 E.00712 ; perimeter
G1 X92.694 Y106.95 E.02295 ; perimeter
G1 X93.111 Y106.7 E.02157 ; perimeter
G1 X93.472 Y106.38 E.0214 ; perimeter
G1 X93.76 Y105.994 E.02136 ; perimeter
G1 X93.953 Y105.55 E.02147 ; perimeter
G1 X94.033 Y105.069 E.02163 ; perimeter
G1 X93.987 Y104.579 E.02183 ; perimeter
G1 X93.819 Y104.116 E.02185 ; perimeter
G1 X93.546 Y103.705 E.02188 ; perimeter
G1 X93.191 Y103.361 E.02193 ; perimeter
G1 X92.775 Y103.092 E.02197 ; perimeter
G1 X92.315 Y102.897 E.02216 ; perimeter
G1 X92.052 Y102.839 E.01195 ; perimeter
G1 X92.052 Y95.826 E.31106 ; perimeter
M204 S1000 ; adjust acceleration
G1 X91.696 Y95.41 F10800 ; move to first perimeter point
M204 S800 ; adjust acceleration
;TYPE:External perimeter
G1 F1200
G1 X137.792 Y95.41 E2.04458 ; perimeter
G1 X137.902 Y95.372 E.00516 ; perimeter
M73 P5 R8
M73 Q5 S8
G1 X137.97 Y95.232 E.0069 ; perimeter
G1 X137.97 Y93.41 E.08081 ; perimeter
G1 X158.304 Y93.41 E.90191 ; perimeter
G1 X158.304 Y116.59 E1.02814 ; perimeter
G1 X137.97 Y116.59 E.90191 ; perimeter
G1 X137.97 Y114.768 E.08081 ; perimeter
G1 X137.929 Y114.654 E.00537 ; perimeter
G1 X137.792 Y114.59 E.00671 ; perimeter
G1 X91.696 Y114.59 E2.04458 ; perimeter
G1 X91.696 Y106.864 E.34268 ; perimeter
M73 P6 R8
M73 Q6 S8
G1 X92.147 Y106.783 E.02032 ; perimeter
G1 X92.56 Y106.62 E.01969 ; perimeter
G1 X92.924 Y106.397 E.01893 ; perimeter
G1 X93.231 Y106.118 E.0184 ; perimeter
G1 X93.469 Y105.788 E.01805 ; perimeter
G1 X93.623 Y105.418 E.01778 ; perimeter
G1 X93.68 Y105.023 E.0177 ; perimeter
G1 X93.634 Y104.625 E.01777 ; perimeter
G1 X93.489 Y104.248 E.01792 ; perimeter
G1 X93.256 Y103.91 E.01821 ; perimeter
G1 X92.95 Y103.623 E.01861 ; perimeter
G1 X92.587 Y103.394 E.01904 ; perimeter
G1 X92.182 Y103.227 E.01943 ; perimeter
G1 X91.696 Y103.136 E.02193 ; perimeter
G1 X91.696 Y95.47 E.34002 ; perimeter
M204 S1000 ; adjust acceleration
G1 X92.047 Y95.603 F10800 ; move inwards before travel
;WIPE_START
G1 F8640
G1 X97.759 Y95.462 E-1.4 ; wipe and retract
;WIPE_END
G1 Z.5 F720 ; lift Z
G1 X157.122 Y93.872 F10800 ; move to first infill point
G1 Z.3 F720 ; restore layer Z
G1 E1.4 F2100 ;  ; unretract
M204 S800 ; adjust acceleration
;TYPE:Solid infill
;WIDTH:0.420039
G1 F1200
G1 X157.681 Y94.431 E.03507 ; infill
G1 X157.681 Y94.934 E.02231 ; infill
G1 X156.779 Y94.032 E.05659 ; infill
G1 X156.276 Y94.032 E.02231 ; infill
G1 X157.681 Y95.437 E.08814 ; infill
G1 X157.681 Y95.94 E.02231 ; infill
G1 X155.773 Y94.032 E.1197 ; infill
G1 X155.27 Y94.032 E.02231 ; infill
G1 X157.681 Y96.443 E.15125 ; infill
G1 X157.681 Y96.946 E.02231 ; infill
G1 X154.767 Y94.032 E.18281 ; infill
G1 X154.264 Y94.032 E.02231 ; infill
G1 X157.681 Y97.449 E.21436 ; infill
G1 X157.681 Y97.952 E.02231 ; infill
G1 X153.762 Y94.032 E.24589 ; infill
G1 X153.259 Y94.032 E.02231 ; infill
G1 X157.681 Y98.455 E.27744 ; infill
G1 X157.681 Y98.958 E.02231 ; infill
G1 X152.756 Y94.032 E.309 ; infill
G1 X152.253 Y94.032 E.02231 ; infill
G1 X157.681 Y99.461 E.34055 ; infill
G1 X157.681 Y99.964 E.02231 ; infill
G1 X151.75 Y94.032 E.37211 ; infill
G1 X151.247 Y94.032 E.02231 ; infill
M73 Q7 S8
G1 X157.681 Y100.467 E.40366 ; infill
G1 X157.681 Y100.97 E.02231 ; infill
M73 P7 R8
G1 X150.744 Y94.032 E.43522 ; infill
G1 X150.241 Y94.032 E.02231 ; infill
G1 X157.681 Y101.473 E.46677 ; infill
G1 X157.681 Y101.976 E.02231 ; infill
G1 X149.738 Y94.032 E.49833 ; infill
G1 X149.235 Y94.032 E.02231 ; infill
G1 X157.681 Y102.479 E.52988 ; infill
G1 X157.681 Y102.982 E.02231 ; infill
G1 X148.732 Y94.032 E.56144 ; infill
G1 X148.229 Y94.032 E.02231 ; infill
G1 X157.681 Y103.485 E.59299 ; infill
G1 X157.681 Y103.988 E.02231 ; infill
G1 X147.726 Y94.032 E.62455 ; infill
G1 X147.223 Y94.032 E.02231 ; infill
G1 X157.681 Y104.491 E.6561 ; infill
G1 X157.681 Y104.994 E.02231 ; infill
M73 Q8 S8
G1 X146.72 Y94.032 E.68766 ; infill
G1 X146.217 Y94.032 E.02231 ; infill
M73 P8 R8
G1 X157.681 Y105.497 E.71921 ; infill
G1 X157.681 Y106 E.02231 ; infill
G1 X145.714 Y94.032 E.75077 ; infill
G1 X145.211 Y94.032 E.02231 ; infill
G1 X157.681 Y106.503 E.78232 ; infill
G1 X157.681 Y107.006 E.02231 ; infill
G1 X144.708 Y94.032 E.81388 ; infill
G1 X144.205 Y94.032 E.02231 ; infill
G1 X157.681 Y107.509 E.84543 ; infill
G1 X157.681 Y108.012 E.02231 ; infill
M73 Q9 S8
G1 X143.702 Y94.032 E.87699 ; infill
G1 X143.199 Y94.032 E.02231 ; infill
M73 P9 R8
G1 X157.681 Y108.515 E.90854 ; infill
G1 X157.681 Y109.018 E.02231 ; infill
G1 X142.696 Y94.032 E.9401 ; infill
G1 X142.193 Y94.032 E.02231 ; infill
G1 X157.681 Y109.521 E.97166 ; infill
G1 X157.681 Y110.024 E.02231 ; infill
G1 X141.69 Y94.032 E1.00321 ; infill
G1 X141.187 Y94.032 E.02231 ; infill
G1 X157.681 Y110.526 E1.03473 ; infill
G1 X157.681 Y111.029 E.02231 ; infill
M73 P10 R8
M73 Q10 S8
G1 X140.684 Y94.032 E1.06629 ; infill
G1 X140.181 Y94.032 E.02231 ; infill
G1 X157.681 Y111.532 E1.09784 ; infill
G1 X157.681 Y112.035 E.02231 ; infill
G1 X139.678 Y94.032 E1.1294 ; infill
G1 X139.175 Y94.032 E.02231 ; infill
G1 X157.681 Y112.538 E1.16096 ; infill
G1 X157.681 Y113.041 E.02231 ; infill
M73 P11 R8
M73 Q11 S8
G1 X138.672 Y94.032 E1.19251 ; infill
G1 X138.592 Y94.032 E.00355 ; infill
G1 X138.592 Y94.455 E.01876 ; infill
G1 X157.681 Y113.544 E1.19753 ; infill
G1 X157.681 Y114.047 E.02231 ; infill
G1 X138.592 Y94.958 E1.19753 ; infill
G1 X138.592 Y95.239 E.01247 ; infill
G1 X138.562 Y95.431 E.00862 ; infill
G1 X157.681 Y114.55 E1.19941 ; infill
G1 X157.681 Y115.053 E.02231 ; infill
M73 P12 R8
M73 Q12 S8
G1 X138.39 Y95.762 E1.2102 ; infill
G1 X138.239 Y95.897 E.00898 ; infill
G1 X138.094 Y95.969 E.00718 ; infill
G1 X157.681 Y115.556 E1.22877 ; infill
G1 X157.681 Y115.968 E.01828 ; infill
G1 X157.59 Y115.968 E.00404 ; infill
G1 X137.654 Y96.032 E1.25066 ; infill
G1 X137.151 Y96.032 E.02231 ; infill
G1 X157.087 Y115.968 E1.25066 ; infill
G1 X156.584 Y115.968 E.02231 ; infill
M73 P13 R8
M73 Q13 S8
G1 X136.648 Y96.032 E1.25066 ; infill
G1 X136.145 Y96.032 E.02231 ; infill
G1 X156.081 Y115.968 E1.25066 ; infill
G1 X155.578 Y115.968 E.02231 ; infill
G1 X135.642 Y96.032 E1.25066 ; infill
G1 X135.139 Y96.032 E.02231 ; infill
G1 X155.075 Y115.968 E1.25066 ; infill
G1 X154.572 Y115.968 E.02231 ; infill
M73 P14 R8
M73 Q14 S8
G1 X134.636 Y96.032 E1.25066 ; infill
G1 X134.134 Y96.032 E.02227 ; infill
G1 X154.069 Y115.968 E1.25063 ; infill
G1 X153.566 Y115.968 E.02231 ; infill
G1 X133.631 Y96.032 E1.25063 ; infill
G1 X133.128 Y96.032 E.02231 ; infill
G1 X153.063 Y115.968 E1.25063 ; infill
G1 X152.56 Y115.968 E.02231 ; infill
M73 P15 R8
M73 Q15 S8
G1 X132.625 Y96.032 E1.25063 ; infill
G1 X132.122 Y96.032 E.02231 ; infill
M73 P15 R7
G1 X152.057 Y115.968 E1.25063 ; infill
G1 X151.554 Y115.968 E.02231 ; infill
M73 Q15 S7
G1 X131.619 Y96.032 E1.25063 ; infill
G1 X131.116 Y96.032 E.02231 ; infill
G1 X151.051 Y115.968 E1.25063 ; infill
G1 X150.548 Y115.968 E.02231 ; infill
M73 P16 R7
M73 Q16 S7
G1 X130.613 Y96.032 E1.25063 ; infill
G1 X130.11 Y96.032 E.02231 ; infill
G1 X150.045 Y115.968 E1.25063 ; infill
G1 X149.542 Y115.968 E.02231 ; infill
G1 X129.607 Y96.032 E1.25063 ; infill
G1 X129.104 Y96.032 E.02231 ; infill
G1 X149.039 Y115.968 E1.25063 ; infill
G1 X148.536 Y115.968 E.02231 ; infill
M73 P17 R7
M73 Q17 S7
G1 X128.601 Y96.032 E1.25063 ; infill
G1 X128.098 Y96.032 E.02231 ; infill
G1 X148.033 Y115.968 E1.25063 ; infill
G1 X147.53 Y115.968 E.02231 ; infill
G1 X127.595 Y96.032 E1.25063 ; infill
G1 X127.092 Y96.032 E.02231 ; infill
G1 X147.027 Y115.968 E1.25063 ; infill
G1 X146.524 Y115.968 E.02231 ; infill
M73 P18 R7
M73 Q18 S7
G1 X126.589 Y96.032 E1.25063 ; infill
G1 X126.086 Y96.032 E.02231 ; infill
G1 X146.021 Y115.968 E1.25063 ; infill
G1 X145.518 Y115.968 E.02231 ; infill
G1 X125.583 Y96.032 E1.25063 ; infill
G1 X125.08 Y96.032 E.02231 ; infill
G1 X145.015 Y115.968 E1.25063 ; infill
G1 X144.512 Y115.968 E.02231 ; infill
M73 P19 R7
M73 Q19 S7
G1 X124.577 Y96.032 E1.25063 ; infill
G1 X124.074 Y96.032 E.02231 ; infill
G1 X144.009 Y115.968 E1.25063 ; infill
G1 X143.506 Y115.968 E.02231 ; infill
G1 X123.571 Y96.032 E1.25063 ; infill
G1 X123.068 Y96.032 E.02231 ; infill
G1 X143.003 Y115.968 E1.25063 ; infill
G1 X142.5 Y115.968 E.02231 ; infill
M73 P20 R7
M73 Q20 S7
G1 X122.565 Y96.032 E1.25063 ; infill
G1 X122.062 Y96.032 E.02231 ; infill
G1 X141.997 Y115.968 E1.25063 ; infill
G1 X141.494 Y115.968 E.02231 ; infill
G1 X121.559 Y96.032 E1.25063 ; infill
G1 X121.056 Y96.032 E.02231 ; infill
G1 X140.991 Y115.968 E1.25063 ; infill
M73 Q21 S7
G1 X140.488 Y115.968 E.02231 ; infill
M73 P21 R7
G1 X120.553 Y96.032 E1.25063 ; infill
G1 X120.05 Y96.032 E.02231 ; infill
G1 X139.986 Y115.968 E1.25066 ; infill
G1 X139.483 Y115.968 E.02231 ; infill
G1 X138.592 Y115.077 E.0559 ; infill
G1 X138.592 Y115.58 E.02231 ; infill
G1 X139.14 Y116.128 E.03438 ; infill
M204 S1000 ; adjust acceleration
;WIPE_START
G1 F8640
G1 X138.592 Y115.58 E-.17895 ; wipe and retract
G1 X138.592 Y115.077 E-.11614 ; wipe and retract
G1 X139.483 Y115.968 E-.29095 ; wipe and retract
G1 X139.986 Y115.968 E-.11614 ; wipe and retract
G1 X137.849 Y113.831 E-.69782 ; wipe and retract
;WIPE_END
G1 Z.5 F720 ; lift Z
G1 X137.643 Y114.128 F10800 ; move to first infill point
G1 Z.3 F720 ; restore layer Z
G1 E1.4 F2100 ;  ; unretract
M204 S800 ; adjust acceleration
G1 F1200
G1 X119.547 Y96.032 E1.13523 ; infill
G1 X119.044 Y96.032 E.02231 ; infill
M73 P22 R7
M73 Q22 S7
G1 X136.98 Y113.968 E1.1252 ; infill
G1 X136.477 Y113.968 E.02231 ; infill
G1 X118.541 Y96.032 E1.1252 ; infill
G1 X118.038 Y96.032 E.02231 ; infill
G1 X135.974 Y113.968 E1.1252 ; infill
G1 X135.471 Y113.968 E.02231 ; infill
G1 X117.535 Y96.032 E1.1252 ; infill
G1 X117.032 Y96.032 E.02231 ; infill
M73 Q23 S7
G1 X134.968 Y113.968 E1.1252 ; infill
G1 X134.465 Y113.968 E.02231 ; infill
M73 P23 R7
G1 X116.529 Y96.032 E1.1252 ; infill
G1 X116.026 Y96.032 E.02231 ; infill
G1 X133.962 Y113.968 E1.1252 ; infill
G1 X133.459 Y113.968 E.02231 ; infill
G1 X115.523 Y96.032 E1.1252 ; infill
G1 X115.02 Y96.032 E.02231 ; infill
G1 X132.956 Y113.968 E1.1252 ; infill
G1 X132.453 Y113.968 E.02231 ; infill
M73 P24 R7
M73 Q24 S7
G1 X114.517 Y96.032 E1.1252 ; infill
G1 X114.014 Y96.032 E.02231 ; infill
G1 X131.95 Y113.968 E1.1252 ; infill
G1 X131.447 Y113.968 E.02231 ; infill
G1 X113.511 Y96.032 E1.1252 ; infill
G1 X113.009 Y96.032 E.02227 ; infill
G1 X130.944 Y113.968 E1.12517 ; infill
G1 X130.441 Y113.968 E.02231 ; infill
M73 P25 R7
M73 Q25 S7
G1 X112.506 Y96.032 E1.12517 ; infill
G1 X112.003 Y96.032 E.02231 ; infill
G1 X129.938 Y113.968 E1.12517 ; infill
G1 X129.435 Y113.968 E.02231 ; infill
G1 X111.5 Y96.032 E1.12517 ; infill
G1 X110.997 Y96.032 E.02231 ; infill
G1 X128.932 Y113.968 E1.12517 ; infill
G1 X128.429 Y113.968 E.02231 ; infill
M73 P25 R6
M73 Q26 S7
G1 X110.494 Y96.032 E1.12517 ; infill
G1 X109.991 Y96.032 E.02231 ; infill
M73 P26 R6
M73 Q26 S6
G1 X127.926 Y113.968 E1.12517 ; infill
G1 X127.423 Y113.968 E.02231 ; infill
G1 X109.488 Y96.032 E1.12517 ; infill
G1 X108.985 Y96.032 E.02231 ; infill
G1 X126.92 Y113.968 E1.12517 ; infill
G1 X126.417 Y113.968 E.02231 ; infill
G1 X108.482 Y96.032 E1.12517 ; infill
G1 X107.979 Y96.032 E.02231 ; infill
M73 P27 R6
M73 Q27 S6
G1 X125.914 Y113.968 E1.12517 ; infill
G1 X125.411 Y113.968 E.02231 ; infill
G1 X107.476 Y96.032 E1.12517 ; infill
G1 X106.973 Y96.032 E.02231 ; infill
G1 X124.908 Y113.968 E1.12517 ; infill
G1 X124.405 Y113.968 E.02231 ; infill
G1 X106.47 Y96.032 E1.12517 ; infill
G1 X105.967 Y96.032 E.02231 ; infill
M73 P28 R6
M73 Q28 S6
G1 X123.902 Y113.968 E1.12517 ; infill
G1 X123.399 Y113.968 E.02231 ; infill
G1 X105.464 Y96.032 E1.12517 ; infill
G1 X104.961 Y96.032 E.02231 ; infill
G1 X122.896 Y113.968 E1.12517 ; infill
G1 X122.393 Y113.968 E.02231 ; infill
G1 X104.458 Y96.032 E1.12517 ; infill
G1 X103.955 Y96.032 E.02231 ; infill
M73 Q29 S6
G1 X121.89 Y113.968 E1.12517 ; infill
G1 X121.387 Y113.968 E.02231 ; infill
M73 P29 R6
G1 X103.452 Y96.032 E1.12517 ; infill
G1 X102.949 Y96.032 E.02231 ; infill
G1 X120.884 Y113.968 E1.12517 ; infill
G1 X120.381 Y113.968 E.02231 ; infill
G1 X102.446 Y96.032 E1.12517 ; infill
G1 X101.943 Y96.032 E.02231 ; infill
G1 X119.878 Y113.968 E1.12517 ; infill
G1 X119.375 Y113.968 E.02231 ; infill
M73 P30 R6
M73 Q30 S6
G1 X101.44 Y96.032 E1.12517 ; infill
G1 X100.937 Y96.032 E.02231 ; infill
G1 X118.872 Y113.968 E1.12517 ; infill
G1 X118.369 Y113.968 E.02231 ; infill
G1 X100.434 Y96.032 E1.12517 ; infill
