; generated by PrusaSlicer 2.6.0 on 2023-08-14 at 16:04:10 UTC


;
;
; 

; external perimeters extrusion width = 0.60mm
; perimeters extrusion width = 0.50mm
; infill extrusion width = 0.50mm
; solid infill extrusion width = 0.50mm
; top infill extrusion width = 0.45mm
; first layer extrusion width = 0.42mm

M73 P0 R37
M73 Q0 S38
M201 X1000 Y1000 Z200 E5000 ; sets maximum accelerations, mm/sec^2
M203 X200 Y200 Z12 E120 ; sets maximum feedrates, mm / sec
M204 S1250 T1250 ; sets acceleration (S) and retract acceleration (R), mm/sec^2
M205 X8.00 Y8.00 Z0.40 E4.50 ; sets the jerk limits, mm/sec
M205 S0 T0 ; sets the minimum extruding and travel feed rate, mm/sec
;TYPE:Custom
M862.3 P "MK3S" ; printer model check
M862.1 P0.4 ; nozzle diameter check
M115 U3.12.2 ; tell printer latest fw version
G90 ; use absolute coordinates
M83 ; extruder relative mode
M104 S240 ; set extruder temp
M140 S95 ; set bed temp
M190 S95 ; wait for bed temp
M109 S240 ; wait for extruder temp
G28 W ; home all without mesh bed level
G80 ; mesh bed leveling

G1 Z0.2 F720
G1 Y-3 F1000 ; go outside print area
G92 E0
G1 X60 E9 F1000 ; intro line
G1 X100 E12.5 F1000 ; intro line

G92 E0
M221 S95

; Don't change E values below. Excessive value can damage the printer.

M907 E538 ; set extruder motor current
G21 ; set units to millimeters
G90 ; use absolute coordinates
M83 ; use relative distances for extrusion
M900 K0.08 ; Filament gcode LA 1.5
M900 K45 ; Filament gcode LA 1.0
M107 ; disable fan
;LAYER_CHANGE
;Z:0.3
;HEIGHT:0.3
;BEFORE_LAYER_CHANGE
G92 E0.0
;0.3


M73 Q0 S37
G1 E-1.4 F2100 ; retract
G1 Z.2 F720 ; lift Z
G1 Z.3 ; move to next layer (0)
;AFTER_LAYER_CHANGE
;0.3
G1 Z.5 ; lift Z
G1 X108.036 Y38.7 F10800 ; move to first skirt point
G1 Z.3 F720 ; restore layer Z
G1 E1.4 F2100 ;  ; unretract
M204 S800 ; adjust acceleration
;TYPE:Skirt/Brim
;WIDTH:0.42
G1 F1200
G1 X109.08 Y37.831 E.06025 ; skirt
G1 X110 Y37.644 E.04164 ; skirt
G1 X140 Y37.644 E1.33064 ; skirt
G1 X141.3 Y38.036 E.06023 ; skirt
G1 X142.169 Y39.08 E.06025 ; skirt
G1 X142.356 Y40 E.04164 ; skirt
G1 X142.356 Y170 E5.76613 ; skirt
G1 X141.964 Y171.3 E.06023 ; skirt
G1 X140.92 Y172.169 E.06025 ; skirt
G1 X140 Y172.356 E.04164 ; skirt
G1 X110 Y172.356 E1.33064 ; skirt
G1 X108.7 Y171.964 E.06023 ; skirt
G1 X107.831 Y170.92 E.06025 ; skirt
G1 X107.644 Y170 E.04164 ; skirt
G1 X107.644 Y40 E5.76613 ; skirt
G1 X108.019 Y38.757 E.05759 ; skirt
M204 S1000 ; adjust acceleration
; printing object antennaPlate-Body.stl id:0 copy 0
;WIPE_START
M73 P1 R37
M73 Q1 S37
G1 F8640
G1 X109.08 Y37.831 E-.32517 ; wipe and retract
G1 X110 Y37.644 E-.21677 ; wipe and retract
G1 X113.716 Y37.644 E-.85806 ; wipe and retract
;WIPE_END
G1 Z.5 F720 ; lift Z
G1 X110.766 Y40.766 F10800 ; move to first perimeter point
G1 Z.3 F720 ; restore layer Z
G1 E1.4 F2100 ;  ; unretract
M204 S800 ; adjust acceleration
;TYPE:Perimeter
;WIDTH:0.42
G1 F1200
G1 X139.234 Y40.766 E1.26269 ; perimeter
G1 X139.234 Y169.234 E5.69817 ; perimeter
G1 X110.766 Y169.234 E1.26269 ; perimeter
G1 X110.766 Y40.826 E5.69551 ; perimeter
M204 S1000 ; adjust acceleration
G1 X110.41 Y40.41 F10800 ; move to first perimeter point
M204 S800 ; adjust acceleration
;TYPE:External perimeter
M73 P1 R36
G1 F1200
G1 X139.59 Y40.41 E1.29427 ; perimeter
G1 X139.59 Y169.59 E5.72975 ; perimeter
G1 X110.41 Y169.59 E1.29427 ; perimeter
M73 P2 R36
M73 Q2 S37
G1 X110.41 Y40.47 E5.72709 ; perimeter
M204 S1000 ; adjust acceleration
G1 X110.77 Y40.584 F10800 ; move inwards before travel
;WIPE_START
G1 F8640
G1 X116.473 Y40.458 E-1.4 ; wipe and retract
;WIPE_END
G1 Z.5 F720 ; lift Z
G1 X122.448 Y70.706 F10800 ; move to first perimeter point
G1 Z.3 F720 ; restore layer Z
G1 E1.4 F2100 ;  ; unretract
M204 S800 ; adjust acceleration
;TYPE:Perimeter
G1 F1200
G1 X121.953 Y70.19 E.03172 ; perimeter
G1 X121.543 Y69.539 E.03412 ; perimeter
G1 X121.269 Y68.82 E.03413 ; perimeter
G1 X121.144 Y68.061 E.03412 ; perimeter
G1 X121.172 Y67.292 E.03413 ; perimeter
G1 X121.352 Y66.544 E.03412 ; perimeter
G1 X121.676 Y65.846 E.03413 ; perimeter
G1 X122.132 Y65.227 E.0341 ; perimeter
G1 X122.702 Y64.71 E.03413 ; perimeter
G1 X123.363 Y64.316 E.03413 ; perimeter
G1 X124.089 Y64.061 E.03413 ; perimeter
G1 X124.851 Y63.955 E.03412 ; perimeter
G1 X125.619 Y64.002 E.03413 ; perimeter
G1 X126.362 Y64.2 E.03411 ; perimeter
G1 X127.051 Y64.542 E.03412 ; perimeter
G1 X127.659 Y65.013 E.03411 ; perimeter
G1 X128.162 Y65.595 E.03412 ; perimeter
G1 X128.539 Y66.266 E.03414 ; perimeter
G1 X128.776 Y66.998 E.03413 ; perimeter
G1 X128.863 Y67.762 E.03411 ; perimeter
G1 X128.797 Y68.529 E.03415 ; perimeter
G1 X128.58 Y69.267 E.03412 ; perimeter
G1 X128.222 Y69.948 E.03413 ; perimeter
G1 X127.605 Y70.667 E.04202 ; perimeter
G1 X126.978 Y71.134 E.03468 ; perimeter
G1 X126.281 Y71.46 E.03413 ; perimeter
G1 X125.533 Y71.642 E.03415 ; perimeter
G1 X124.764 Y71.672 E.03413 ; perimeter
G1 X124.005 Y71.549 E.0341 ; perimeter
G1 X123.285 Y71.277 E.03414 ; perimeter
G1 X122.49 Y70.749 E.04233 ; perimeter
M204 S1000 ; adjust acceleration
G1 X122.695 Y70.461 F10800 ; move to first perimeter point
M204 S800 ; adjust acceleration
;TYPE:External perimeter
G1 F1200
G1 X122.213 Y69.948 E.03122 ; perimeter
G1 X121.846 Y69.354 E.03097 ; perimeter
G1 X121.604 Y68.699 E.03097 ; perimeter
G1 X121.496 Y68.008 E.03102 ; perimeter
G1 X121.527 Y67.31 E.03099 ; perimeter
G1 X121.696 Y66.632 E.03099 ; perimeter
G1 X121.996 Y66.001 E.03099 ; perimeter
G1 X122.416 Y65.442 E.03101 ; perimeter
G1 X122.937 Y64.977 E.03097 ; perimeter
G1 X123.541 Y64.624 E.03103 ; perimeter
G1 X124.202 Y64.398 E.03098 ; perimeter
G1 X124.895 Y64.308 E.031 ; perimeter
G1 X125.592 Y64.356 E.03099 ; perimeter
G1 X126.266 Y64.542 E.03101 ; perimeter
G1 X126.889 Y64.858 E.03098 ; perimeter
G1 X127.438 Y65.291 E.03101 ; perimeter
G1 X127.889 Y65.824 E.03097 ; perimeter
G1 X128.227 Y66.436 E.03101 ; perimeter
G1 X128.436 Y67.103 E.031 ; perimeter
G1 X128.509 Y67.798 E.031 ; perimeter
G1 X128.443 Y68.493 E.03097 ; perimeter
G1 X128.241 Y69.162 E.031 ; perimeter
G1 X127.909 Y69.778 E.03104 ; perimeter
G1 X127.338 Y70.432 E.03851 ; perimeter
G1 X126.77 Y70.846 E.03118 ; perimeter
G1 X126.134 Y71.136 E.031 ; perimeter
G1 X125.454 Y71.295 E.03097 ; perimeter
G1 X124.755 Y71.316 E.03102 ; perimeter
G1 X124.067 Y71.198 E.03096 ; perimeter
G1 X123.415 Y70.946 E.031 ; perimeter
G1 X122.745 Y70.495 E.03582 ; perimeter
M204 S1000 ; adjust acceleration
G1 X122.318 Y70.594 F10800 ; move inwards before travel
;WIPE_START
G1 F8640
G1 X122.213 Y69.948 E-.17619 ; wipe and retract
G1 X121.846 Y69.354 E-.16122 ; wipe and retract
G1 X121.604 Y68.699 E-.16123 ; wipe and retract
G1 X121.496 Y68.008 E-.16149 ; wipe and retract
G1 X121.527 Y67.31 E-.16133 ; wipe and retract
G1 X121.696 Y66.632 E-.16134 ; wipe and retract
G1 X121.996 Y66.001 E-.16133 ; wipe and retract
G1 X122.416 Y65.442 E-.16145 ; wipe and retract
G1 X122.721 Y65.17 E-.09442 ; wipe and retract
;WIPE_END
G1 Z.5 F720 ; lift Z
G1 X125.012 Y146.025 F10800 ; move to first perimeter point
G1 Z.3 F720 ; restore layer Z
G1 E1.4 F2100 ;  ; unretract
M204 S800 ; adjust acceleration
;TYPE:Perimeter
G1 F1200
G1 X124.738 Y146.041 E.01217 ; perimeter
G1 X124.005 Y145.918 E.03297 ; perimeter
G1 X123.127 Y145.562 E.04202 ; perimeter
G1 X122.484 Y145.116 E.03471 ; perimeter
G1 X121.953 Y144.559 E.03413 ; perimeter
G1 X121.543 Y143.909 E.03409 ; perimeter
G1 X121.269 Y143.189 E.03417 ; perimeter
G1 X121.144 Y142.43 E.03412 ; perimeter
G1 X121.172 Y141.661 E.03413 ; perimeter
G1 X121.352 Y140.913 E.03412 ; perimeter
G1 X121.676 Y140.216 E.03409 ; perimeter
G1 X122.132 Y139.596 E.03414 ; perimeter
G1 X122.702 Y139.079 E.03413 ; perimeter
G1 X123.363 Y138.685 E.03413 ; perimeter
G1 X124.089 Y138.43 E.03413 ; perimeter
G1 X124.851 Y138.324 E.03412 ; perimeter
G1 X125.619 Y138.371 E.03413 ; perimeter
G1 X126.362 Y138.569 E.03411 ; perimeter
G1 X127.051 Y138.911 E.03412 ; perimeter
G1 X127.659 Y139.382 E.03411 ; perimeter
G1 X128.162 Y139.965 E.03415 ; perimeter
G1 X128.539 Y140.635 E.0341 ; perimeter
G1 X128.776 Y141.367 E.03413 ; perimeter
G1 X128.863 Y142.131 E.03411 ; perimeter
G1 X128.797 Y142.898 E.03415 ; perimeter
G1 X128.58 Y143.636 E.03412 ; perimeter
G1 X128.222 Y144.317 E.03413 ; perimeter
G1 X127.735 Y144.913 E.03414 ; perimeter
G1 X127.141 Y145.401 E.0341 ; perimeter
G1 X126.461 Y145.761 E.03413 ; perimeter
G1 X125.723 Y145.98 E.03414 ; perimeter
G1 X125.072 Y146.021 E.02893 ; perimeter
M204 S1000 ; adjust acceleration
G1 X124.747 Y145.685 F10800 ; move to first perimeter point
M204 S800 ; adjust acceleration
;TYPE:External perimeter
G1 F1200
G1 X124.067 Y145.567 E.03061 ; perimeter
G1 X123.265 Y145.234 E.03852 ; perimeter
G1 X122.691 Y144.827 E.03121 ; perimeter
G1 X122.213 Y144.318 E.03097 ; perimeter
G1 X121.846 Y143.723 E.03101 ; perimeter
G1 X121.604 Y143.068 E.03097 ; perimeter
G1 X121.496 Y142.377 E.03102 ; perimeter
G1 X121.527 Y141.679 E.03099 ; perimeter
G1 X121.696 Y141.001 E.03099 ; perimeter
G1 X121.996 Y140.37 E.03099 ; perimeter
G1 X122.416 Y139.811 E.03101 ; perimeter
G1 X122.937 Y139.346 E.03097 ; perimeter
G1 X123.541 Y138.993 E.03103 ; perimeter
G1 X124.202 Y138.767 E.03098 ; perimeter
G1 X124.895 Y138.677 E.031 ; perimeter
G1 X125.592 Y138.726 E.03099 ; perimeter
G1 X126.266 Y138.911 E.031 ; perimeter
G1 X126.889 Y139.227 E.03098 ; perimeter
G1 X127.438 Y139.66 E.03101 ; perimeter
G1 X127.889 Y140.193 E.03097 ; perimeter
G1 X128.227 Y140.805 E.03101 ; perimeter
G1 X128.436 Y141.472 E.031 ; perimeter
M73 Q2 S36
G1 X128.509 Y142.167 E.031 ; perimeter
G1 X128.443 Y142.863 E.03101 ; perimeter
G1 X128.241 Y143.531 E.03095 ; perimeter
G1 X127.909 Y144.147 E.03104 ; perimeter
G1 X127.463 Y144.684 E.03096 ; perimeter
G1 X126.919 Y145.123 E.03101 ; perimeter
G1 X126.299 Y145.445 E.03099 ; perimeter
G1 X125.626 Y145.637 E.03104 ; perimeter
G1 X124.806 Y145.683 E.03643 ; perimeter
M204 S1000 ; adjust acceleration
G1 X124.525 Y146.018 F10800 ; move inwards before travel
;WIPE_START
G1 F8640
G1 X124.067 Y145.567 E-.17273 ; wipe and retract
G1 X123.265 Y145.234 E-.20051 ; wipe and retract
G1 X122.691 Y144.827 E-.16248 ; wipe and retract
G1 X122.213 Y144.318 E-.16123 ; wipe and retract
G1 X121.846 Y143.723 E-.16142 ; wipe and retract
G1 X121.604 Y143.068 E-.16123 ; wipe and retract
G1 X121.496 Y142.377 E-.16149 ; wipe and retract
G1 X121.527 Y141.679 E-.16133 ; wipe and retract
G1 X121.587 Y141.437 E-.05758 ; wipe and retract
;WIPE_END
G1 Z.5 F720 ; lift Z
G1 X139.128 Y41.592 F10800 ; move to first infill point
G1 Z.3 F720 ; restore layer Z
G1 E1.4 F2100 ;  ; unretract
M204 S800 ; adjust acceleration
;TYPE:Solid infill
;WIDTH:0.420394
G1 F1200
G1 X138.568 Y41.032 E.03517 ; infill
G1 X138.065 Y41.032 E.02234 ; infill
G1 X138.968 Y41.935 E.05671 ; infill
G1 X138.968 Y42.439 E.02238 ; infill
G1 X137.561 Y41.032 E.08835 ; infill
G1 X137.058 Y41.032 E.02234 ; infill
G1 X138.968 Y42.942 E.11994 ; infill
G1 X138.968 Y43.446 E.02238 ; infill
G1 X136.554 Y41.032 E.15159 ; infill
G1 X136.051 Y41.032 E.02234 ; infill
G1 X138.968 Y43.949 E.18318 ; infill
G1 X138.968 Y44.453 E.02238 ; infill
G1 X135.547 Y41.032 E.21483 ; infill
G1 X135.044 Y41.032 E.02234 ; infill
G1 X138.968 Y44.956 E.24641 ; infill
G1 X138.968 Y45.46 E.02238 ; infill
G1 X134.54 Y41.032 E.27806 ; infill
G1 X134.037 Y41.032 E.02234 ; infill
G1 X138.968 Y45.963 E.30965 ; infill
G1 X138.968 Y46.467 E.02238 ; infill
G1 X133.533 Y41.032 E.3413 ; infill
G1 X133.03 Y41.032 E.02234 ; infill
G1 X138.968 Y46.97 E.37289 ; infill
G1 X138.968 Y47.474 E.02238 ; infill
G1 X132.526 Y41.032 E.40454 ; infill
G1 X132.023 Y41.032 E.02234 ; infill
G1 X138.968 Y47.977 E.43612 ; infill
G1 X138.968 Y48.481 E.02238 ; infill
G1 X131.519 Y41.032 E.46777 ; infill
G1 X131.016 Y41.032 E.02234 ; infill
M73 P3 R36
M73 Q3 S36
G1 X138.968 Y48.984 E.49936 ; infill
G1 X138.968 Y49.488 E.02238 ; infill
G1 X130.512 Y41.032 E.53101 ; infill
G1 X130.009 Y41.032 E.02234 ; infill
G1 X138.968 Y49.991 E.56259 ; infill
G1 X138.968 Y50.495 E.02238 ; infill
G1 X129.505 Y41.032 E.59424 ; infill
G1 X129.002 Y41.032 E.02234 ; infill
G1 X138.968 Y50.998 E.62583 ; infill
G1 X138.968 Y51.502 E.02238 ; infill
G1 X128.498 Y41.032 E.65748 ; infill
G1 X127.995 Y41.032 E.02234 ; infill
G1 X138.968 Y52.005 E.68907 ; infill
G1 X138.968 Y52.509 E.02238 ; infill
G1 X127.491 Y41.032 E.72072 ; infill
G1 X126.988 Y41.032 E.02234 ; infill
G1 X138.968 Y53.012 E.7523 ; infill
G1 X138.968 Y53.515 E.02234 ; infill
G1 X126.485 Y41.032 E.78389 ; infill
G1 X125.981 Y41.032 E.02238 ; infill
G1 X138.968 Y54.019 E.81554 ; infill
G1 X138.968 Y54.522 E.02234 ; infill
G1 X125.478 Y41.032 E.84713 ; infill
G1 X124.974 Y41.032 E.02238 ; infill
G1 X138.968 Y55.026 E.87878 ; infill
G1 X138.968 Y55.529 E.02234 ; infill
G1 X124.471 Y41.032 E.91036 ; infill
G1 X123.967 Y41.032 E.02238 ; infill
G1 X138.968 Y56.033 E.94201 ; infill
G1 X138.968 Y56.536 E.02234 ; infill
G1 X123.464 Y41.032 E.9736 ; infill
G1 X122.96 Y41.032 E.02238 ; infill
G1 X138.968 Y57.04 E1.00525 ; infill
G1 X138.968 Y57.543 E.02234 ; infill
G1 X122.457 Y41.032 E1.03683 ; infill
G1 X121.953 Y41.032 E.02238 ; infill
G1 X138.968 Y58.047 E1.06848 ; infill
G1 X138.968 Y58.55 E.02234 ; infill
G1 X121.45 Y41.032 E1.10007 ; infill
G1 X120.946 Y41.032 E.02238 ; infill
G1 X138.968 Y59.054 E1.13172 ; infill
G1 X138.968 Y59.557 E.02234 ; infill
G1 X120.443 Y41.032 E1.16331 ; infill
G1 X119.939 Y41.032 E.02238 ; infill
G1 X138.968 Y60.061 E1.19496 ; infill
G1 X138.968 Y60.564 E.02234 ; infill
M73 P4 R36
M73 Q4 S36
G1 X119.436 Y41.032 E1.22654 ; infill
G1 X118.932 Y41.032 E.02238 ; infill
G1 X138.968 Y61.068 E1.25819 ; infill
G1 X138.968 Y61.571 E.02234 ; infill
G1 X118.429 Y41.032 E1.28978 ; infill
G1 X117.925 Y41.032 E.02238 ; infill
M73 P4 R35
G1 X138.968 Y62.075 E1.32143 ; infill
G1 X138.968 Y62.578 E.02234 ; infill
G1 X117.422 Y41.032 E1.35302 ; infill
G1 X116.918 Y41.032 E.02238 ; infill
G1 X138.968 Y63.082 E1.38467 ; infill
G1 X138.968 Y63.585 E.02234 ; infill
G1 X116.415 Y41.032 E1.41625 ; infill
G1 X115.911 Y41.032 E.02238 ; infill
G1 X138.968 Y64.089 E1.4479 ; infill
G1 X138.968 Y64.592 E.02234 ; infill
G1 X115.408 Y41.032 E1.47949 ; infill
G1 X114.905 Y41.032 E.02234 ; infill
G1 X138.968 Y65.095 E1.51107 ; infill
G1 X138.968 Y65.599 E.02238 ; infill
G1 X114.401 Y41.032 E1.54272 ; infill
G1 X113.898 Y41.032 E.02234 ; infill
G1 X138.968 Y66.102 E1.57431 ; infill
G1 X138.968 Y66.606 E.02238 ; infill
G1 X113.394 Y41.032 E1.60596 ; infill
G1 X112.891 Y41.032 E.02234 ; infill
G1 X138.968 Y67.109 E1.63755 ; infill
G1 X138.968 Y67.613 E.02238 ; infill
M73 P5 R35
M73 Q5 S36
G1 X112.387 Y41.032 E1.6692 ; infill
G1 X111.884 Y41.032 E.02234 ; infill
G1 X138.968 Y68.116 E1.70078 ; infill
G1 X138.968 Y68.62 E.02238 ; infill
G1 X111.38 Y41.032 E1.73243 ; infill
G1 X111.032 Y41.032 E.01545 ; infill
G1 X111.032 Y41.188 E.00693 ; infill
G1 X138.968 Y69.123 E1.75425 ; infill
G1 X138.968 Y69.627 E.02238 ; infill
M73 Q5 S35
G1 X111.032 Y41.691 E1.75429 ; infill
G1 X111.032 Y42.195 E.02238 ; infill
G1 X138.968 Y70.13 E1.75425 ; infill
G1 X138.968 Y70.634 E.02238 ; infill
G1 X111.032 Y42.698 E1.75429 ; infill
G1 X111.032 Y43.202 E.02238 ; infill
G1 X138.968 Y71.137 E1.75425 ; infill
G1 X138.968 Y71.641 E.02238 ; infill
G1 X111.032 Y43.705 E1.75429 ; infill
G1 X111.032 Y44.209 E.02238 ; infill
G1 X138.968 Y72.144 E1.75425 ; infill
G1 X138.968 Y72.648 E.02238 ; infill
G1 X111.032 Y44.712 E1.75429 ; infill
G1 X111.032 Y45.216 E.02238 ; infill
M73 P6 R35
G1 X138.968 Y73.151 E1.75425 ; infill
G1 X138.968 Y73.655 E.02238 ; infill
M73 Q6 S35
G1 X111.032 Y45.719 E1.75429 ; infill
G1 X111.032 Y46.223 E.02238 ; infill
G1 X138.968 Y74.158 E1.75425 ; infill
G1 X138.968 Y74.662 E.02238 ; infill
G1 X111.032 Y46.726 E1.75429 ; infill
G1 X111.032 Y47.23 E.02238 ; infill
G1 X138.968 Y75.165 E1.75425 ; infill
G1 X138.968 Y75.669 E.02238 ; infill
G1 X111.032 Y47.733 E1.75429 ; infill
G1 X111.032 Y48.237 E.02238 ; infill
G1 X127.031 Y64.235 E1.00465 ; infill
G1 X127.241 Y64.343 E.01049 ; infill
