; generated by PrusaSlicer 2.6.0 on 2023-08-10 at 16:02:12 UTC


;
;
; 

; external perimeters extrusion width = 0.60mm
; perimeters extrusion width = 0.50mm
; infill extrusion width = 0.50mm
; solid infill extrusion width = 0.50mm
; top infill extrusion width = 0.45mm
; first layer extrusion width = 0.42mm

M73 P0 R153
M73 Q0 S155
M201 X1000 Y1000 Z200 E5000 ; sets maximum accelerations, mm/sec^2
M203 X200 Y200 Z12 E120 ; sets maximum feedrates, mm / sec
M204 S1250 T1250 ; sets acceleration (S) and retract acceleration (R), mm/sec^2
M205 X8.00 Y8.00 Z0.40 E4.50 ; sets the jerk limits, mm/sec
M205 S0 T0 ; sets the minimum extruding and travel feed rate, mm/sec
;TYPE:Custom
M862.3 P "MK3S" ; printer model check
M862.1 P0.4 ; nozzle diameter check
M115 U3.12.2 ; tell printer latest fw version
G90 ; use absolute coordinates
M83 ; extruder relative mode
M104 S240 ; set extruder temp
M140 S95 ; set bed temp
M190 S95 ; wait for bed temp
M109 S240 ; wait for extruder temp
G28 W ; home all without mesh bed level
G80 ; mesh bed leveling

G1 Z0.2 F720
G1 Y-3 F1000 ; go outside print area
G92 E0
G1 X60 E9 F1000 ; intro line
G1 X100 E12.5 F1000 ; intro line

G92 E0
M221 S95

; Don't change E values below. Excessive value can damage the printer.

M907 E538 ; set extruder motor current
G21 ; set units to millimeters
G90 ; use absolute coordinates
M83 ; use relative distances for extrusion
M900 K0.08 ; Filament gcode LA 1.5
M900 K45 ; Filament gcode LA 1.0
M107 ; disable fan
;LAYER_CHANGE
;Z:0.3
;HEIGHT:0.3
;BEFORE_LAYER_CHANGE
G92 E0.0
;0.3


G1 E-1.4 F2100 ; retract
G1 Z.2 F720 ; lift Z
G1 Z.3 ; move to next layer (0)
;AFTER_LAYER_CHANGE
;0.3
G1 Z.5 ; lift Z
G1 X32.78 Y38.887 F10800 ; move to first skirt point
G1 Z.3 F720 ; restore layer Z
G1 E1.4 F2100 ;  ; unretract
M204 S800 ; adjust acceleration
;TYPE:Skirt/Brim
;WIDTH:0.42
G1 F1200
G1 X33.744 Y38.309 E.04985 ; skirt
G1 X34.609 Y37.966 E.04127 ; skirt
G1 X35.515 Y37.754 E.04127 ; skirt
G1 X36.5 Y37.676 E.04383 ; skirt
G1 X213.558 Y37.677 E7.85337 ; skirt
G1 X214.79 Y37.81 E.05496 ; skirt
M73 Q0 S154
G1 X215.973 Y38.18 E.05498 ; skirt
G1 X216.965 Y38.711 E.04991 ; skirt
G1 X217.93 Y39.488 E.05495 ; skirt
G1 X218.725 Y40.439 E.05498 ; skirt
G1 X219.32 Y41.527 E.055 ; skirt
G1 X219.684 Y42.682 E.05371 ; skirt
G1 X219.818 Y43.747 E.04761 ; skirt
G1 X219.823 Y166.058 E5.42508 ; skirt
G1 X219.619 Y167.592 E.06864 ; skirt
G1 X219.104 Y168.93 E.06359 ; skirt
G1 X218.224 Y170.203 E.06864 ; skirt
G1 X217.22 Y171.113 E.0601 ; skirt
G1 X216.256 Y171.691 E.04985 ; skirt
G1 X215.391 Y172.034 E.04127 ; skirt
G1 X214.485 Y172.246 E.04127 ; skirt
G1 X213.5 Y172.324 E.04383 ; skirt
G1 X36.5 Y172.324 E7.8508 ; skirt
G1 X35.02 Y172.148 E.06611 ; skirt
M73 P0 R152
G1 X33.57 Y171.604 E.06869 ; skirt
G1 X32.444 Y170.851 E.06008 ; skirt
G1 X31.387 Y169.72 E.06866 ; skirt
G1 X30.809 Y168.756 E.04985 ; skirt
G1 X30.466 Y167.891 E.04127 ; skirt
G1 X30.254 Y166.985 E.04127 ; skirt
G1 X30.176 Y166 E.04383 ; skirt
G1 X30.176 Y44 E5.41129 ; skirt
G1 X30.352 Y42.52 E.06611 ; skirt
G1 X30.896 Y41.07 E.06869 ; skirt
G1 X31.776 Y39.797 E.06864 ; skirt
G1 X32.735 Y38.927 E.05743 ; skirt
M204 S1000 ; adjust acceleration
; printing object baseplate.stl id:0 copy 0
;WIPE_START
G1 F8640
G1 X33.744 Y38.309 E-.27321 ; wipe and retract
G1 X34.609 Y37.966 E-.21486 ; wipe and retract
G1 X35.515 Y37.754 E-.21485 ; wipe and retract
G1 X36.5 Y37.676 E-.22815 ; wipe and retract
G1 X38.531 Y37.676 E-.46893 ; wipe and retract
;WIPE_END
G1 Z.5 F720 ; lift Z
G1 X34.858 Y41.786 F10800 ; move to first perimeter point
G1 Z.3 F720 ; restore layer Z
G1 E1.4 F2100 ;  ; unretract
M204 S800 ; adjust acceleration
;TYPE:Perimeter
;WIDTH:0.42
G1 F1200
G1 X35.445 Y41.453 E.02993 ; perimeter
G1 X36.108 Y41.27 E.03051 ; perimeter
G1 X36.523 Y41.239 E.01846 ; perimeter
G1 X213.423 Y41.242 E7.84636 ; perimeter
G1 X214.034 Y41.294 E.0272 ; perimeter
G1 X214.555 Y41.452 E.02415 ; perimeter
G1 X215.032 Y41.707 E.02399 ; perimeter
G1 X215.45 Y42.05 E.02398 ; perimeter
G1 X215.793 Y42.468 E.02398 ; perimeter
G1 X216.048 Y42.945 E.02399 ; perimeter
G1 X216.205 Y43.462 E.02397 ; perimeter
G1 X216.261 Y44.173 E.03163 ; perimeter
G1 X216.261 Y165.971 E5.40232 ; perimeter
G1 X216.206 Y166.531 E.02496 ; perimeter
G1 X215.992 Y167.179 E.03027 ; perimeter
G1 X215.631 Y167.749 E.02993 ; perimeter
G1 X215.142 Y168.214 E.02993 ; perimeter
G1 X214.555 Y168.547 E.02993 ; perimeter
G1 X213.98 Y168.706 E.02646 ; perimeter
G1 X213.477 Y168.761 E.02244 ; perimeter
G1 X36.529 Y168.761 E7.84849 ; perimeter
G1 X35.969 Y168.706 E.02496 ; perimeter
G1 X35.322 Y168.492 E.03023 ; perimeter
G1 X34.752 Y168.131 E.02993 ; perimeter
G1 X34.281 Y167.637 E.03027 ; perimeter
G1 X34.004 Y167.174 E.02393 ; perimeter
G1 X33.814 Y166.596 E.02699 ; perimeter
G1 X33.739 Y165.977 E.02766 ; perimeter
G1 X33.739 Y44.029 E5.40897 ; perimeter
G1 X33.794 Y43.469 E.02496 ; perimeter
G1 X34.008 Y42.821 E.03027 ; perimeter
G1 X34.369 Y42.251 E.02993 ; perimeter
G1 X34.814 Y41.828 E.02723 ; perimeter
M204 S1000 ; adjust acceleration
G1 X34.644 Y41.498 F10800 ; move to first perimeter point
M204 S800 ; adjust acceleration
;TYPE:External perimeter
G1 F1200
G1 X35.308 Y41.122 E.03385 ; perimeter
G1 X36.047 Y40.918 E.034 ; perimeter
G1 X36.51 Y40.884 E.02059 ; perimeter
G1 X213.605 Y40.887 E7.85501 ; perimeter
G1 X214.107 Y40.944 E.02241 ; perimeter
M73 Q0 S153
G1 X214.692 Y41.122 E.02712 ; perimeter
G1 X215.231 Y41.41 E.02711 ; perimeter
G1 X215.703 Y41.797 E.02707 ; perimeter
G1 X216.09 Y42.269 E.02707 ; perimeter
G1 X216.378 Y42.808 E.02711 ; perimeter
G1 X216.555 Y43.392 E.02707 ; perimeter
G1 X216.616 Y44.173 E.03475 ; perimeter
G1 X216.616 Y165.988 E5.40308 ; perimeter
G1 X216.556 Y166.605 E.0275 ; perimeter
G1 X216.316 Y167.332 E.03396 ; perimeter
G1 X215.908 Y167.976 E.03381 ; perimeter
G1 X215.356 Y168.502 E.03382 ; perimeter
G1 X214.692 Y168.878 E.03385 ; perimeter
G1 X214.075 Y169.049 E.0284 ; perimeter
G1 X213.49 Y169.116 E.02612 ; perimeter
G1 X36.512 Y169.116 E7.84982 ; perimeter
G1 X35.895 Y169.056 E.0275 ; perimeter
M73 P1 R151
M73 Q1 S153
G1 X35.169 Y168.816 E.03392 ; perimeter
G1 X34.524 Y168.408 E.03385 ; perimeter
G1 X33.997 Y167.854 E.03391 ; perimeter
G1 X33.683 Y167.33 E.0271 ; perimeter
G1 X33.467 Y166.674 E.03063 ; perimeter
G1 X33.384 Y165.99 E.03056 ; perimeter
G1 X33.384 Y44.012 E5.41031 ; perimeter
G1 X33.444 Y43.395 E.0275 ; perimeter
G1 X33.684 Y42.668 E.03396 ; perimeter
G1 X34.092 Y42.024 E.03381 ; perimeter
G1 X34.601 Y41.54 E.03115 ; perimeter
M204 S1000 ; adjust acceleration
G1 X35.011 Y41.657 F10800 ; move inwards before travel
;WIPE_START
G1 F8640
G1 X35.308 Y41.122 E-.18965 ; wipe and retract
G1 X36.047 Y40.918 E-.17702 ; wipe and retract
G1 X36.51 Y40.884 E-.1072 ; wipe and retract
G1 X40.521 Y40.884 E-.92613 ; wipe and retract
;WIPE_END
G1 Z.5 F720 ; lift Z
G1 X210.366 Y123.004 F10800 ; move to first perimeter point
G1 Z.3 F720 ; restore layer Z
G1 E1.4 F2100 ;  ; unretract
M204 S800 ; adjust acceleration
;TYPE:Perimeter
G1 F1200
G1 X210.428 Y122.487 E.0231 ; perimeter
G1 X210.632 Y121.967 E.02478 ; perimeter
G1 X210.93 Y121.545 E.02291 ; perimeter
G1 X211.295 Y121.233 E.0213 ; perimeter
G1 X211.669 Y121.029 E.0189 ; perimeter
G1 X212.076 Y120.904 E.01888 ; perimeter
G1 X212.5 Y120.861 E.0189 ; perimeter
G1 X212.924 Y120.904 E.0189 ; perimeter
G1 X213.331 Y121.029 E.01888 ; perimeter
G1 X213.705 Y121.233 E.0189 ; perimeter
G1 X214.031 Y121.506 E.01886 ; perimeter
G1 X214.297 Y121.839 E.0189 ; perimeter
G1 X214.491 Y122.218 E.01888 ; perimeter
G1 X214.585 Y122.524 E.0142 ; perimeter
G1 X214.638 Y123.053 E.02358 ; perimeter
G1 X214.572 Y123.513 E.02061 ; perimeter
G1 X214.368 Y124.033 E.02478 ; perimeter
G1 X214.031 Y124.493 E.02529 ; perimeter
G1 X213.705 Y124.767 E.01889 ; perimeter
G1 X213.331 Y124.971 E.0189 ; perimeter
G1 X212.924 Y125.096 E.01888 ; perimeter
G1 X212.5 Y125.139 E.0189 ; perimeter
G1 X212.076 Y125.096 E.0189 ; perimeter
G1 X211.669 Y124.971 E.01888 ; perimeter
G1 X211.295 Y124.767 E.0189 ; perimeter
G1 X210.969 Y124.494 E.01886 ; perimeter
G1 X210.703 Y124.161 E.0189 ; perimeter
G1 X210.509 Y123.782 E.01888 ; perimeter
G1 X210.394 Y123.372 E.01889 ; perimeter
G1 X210.371 Y123.064 E.0137 ; perimeter
M204 S1000 ; adjust acceleration
G1 X210.716 Y122.982 F10800 ; move to first perimeter point
M204 S800 ; adjust acceleration
;TYPE:External perimeter
G1 F1200
G1 X210.759 Y122.617 E.0163 ; perimeter
G1 X210.963 Y122.097 E.02478 ; perimeter
G1 X211.204 Y121.773 E.01791 ; perimeter
G1 X211.473 Y121.541 E.01576 ; perimeter
G1 X211.782 Y121.366 E.01575 ; perimeter
G1 X212.12 Y121.256 E.01577 ; perimeter
G1 X212.473 Y121.216 E.01576 ; perimeter
G1 X212.827 Y121.246 E.01576 ; perimeter
G1 X213.168 Y121.345 E.01575 ; perimeter
G1 X213.483 Y121.511 E.01579 ; perimeter
G1 X213.759 Y121.735 E.01577 ; perimeter
G1 X213.984 Y122.009 E.01573 ; perimeter
G1 X214.151 Y122.323 E.01577 ; perimeter
G1 X214.245 Y122.629 E.0142 ; perimeter
G1 X214.284 Y123.018 E.01734 ; perimeter
G1 X214.241 Y123.383 E.0163 ; perimeter
G1 X214.037 Y123.903 E.02478 ; perimeter
G1 X213.796 Y124.227 E.01791 ; perimeter
G1 X213.527 Y124.459 E.01576 ; perimeter
G1 X213.218 Y124.634 E.01575 ; perimeter
G1 X212.88 Y124.744 E.01577 ; perimeter
G1 X212.527 Y124.784 E.01576 ; perimeter
G1 X212.173 Y124.754 E.01576 ; perimeter
G1 X211.832 Y124.655 E.01575 ; perimeter
G1 X211.517 Y124.489 E.01579 ; perimeter
G1 X211.241 Y124.265 E.01577 ; perimeter
G1 X211.016 Y123.991 E.01573 ; perimeter
G1 X210.849 Y123.677 E.01577 ; perimeter
G1 X210.748 Y123.336 E.01577 ; perimeter
G1 X210.721 Y123.042 E.0131 ; perimeter
M204 S1000 ; adjust acceleration
G1 X210.4 Y122.794 F10800 ; move inwards before travel
;WIPE_START
G1 F8640
G1 X210.759 Y122.617 E-.09853 ; wipe and retract
G1 X210.963 Y122.097 E-.12898 ; wipe and retract
G1 X211.204 Y121.773 E-.09324 ; wipe and retract
G1 X211.473 Y121.541 E-.08202 ; wipe and retract
G1 X211.782 Y121.366 E-.082 ; wipe and retract
G1 X212.12 Y121.256 E-.08207 ; wipe and retract
G1 X212.473 Y121.216 E-.08203 ; wipe and retract
G1 X212.827 Y121.246 E-.08203 ; wipe and retract
G1 X213.168 Y121.345 E-.08199 ; wipe and retract
G1 X213.483 Y121.511 E-.08222 ; wipe and retract
G1 X213.759 Y121.735 E-.08208 ; wipe and retract
G1 X213.984 Y122.009 E-.08187 ; wipe and retract
G1 X214.151 Y122.323 E-.08212 ; wipe and retract
G1 X214.245 Y122.629 E-.07391 ; wipe and retract
G1 X214.284 Y123.018 E-.09027 ; wipe and retract
G1 X214.241 Y123.383 E-.08486 ; wipe and retract
G1 X214.226 Y123.422 E-.00978 ; wipe and retract
;WIPE_END
G1 Z.5 F720 ; lift Z
G1 X210.366 Y165.004 F10800 ; move to first perimeter point
G1 Z.3 F720 ; restore layer Z
G1 E1.4 F2100 ;  ; unretract
M204 S800 ; adjust acceleration
;TYPE:Perimeter
G1 F1200
G1 X210.428 Y164.487 E.0231 ; perimeter
G1 X210.632 Y163.967 E.02478 ; perimeter
G1 X210.93 Y163.544 E.02295 ; perimeter
G1 X211.295 Y163.233 E.02127 ; perimeter
G1 X211.669 Y163.029 E.0189 ; perimeter
G1 X212.076 Y162.904 E.01888 ; perimeter
G1 X212.5 Y162.861 E.0189 ; perimeter
G1 X212.924 Y162.904 E.0189 ; perimeter
G1 X213.331 Y163.029 E.01888 ; perimeter
G1 X213.705 Y163.233 E.0189 ; perimeter
G1 X214.031 Y163.506 E.01886 ; perimeter
G1 X214.297 Y163.839 E.0189 ; perimeter
G1 X214.491 Y164.218 E.01888 ; perimeter
G1 X214.606 Y164.628 E.01889 ; perimeter
G1 X214.638 Y165.053 E.0189 ; perimeter
G1 X214.585 Y165.476 E.01891 ; perimeter
G1 X214.448 Y165.883 E.01905 ; perimeter
G1 X214.21 Y166.278 E.02045 ; perimeter
G1 X213.817 Y166.681 E.02497 ; perimeter
G1 X213.37 Y166.956 E.02328 ; perimeter
G1 X212.924 Y167.096 E.02073 ; perimeter
G1 X212.5 Y167.139 E.0189 ; perimeter
G1 X212.076 Y167.096 E.0189 ; perimeter
G1 X211.669 Y166.971 E.01888 ; perimeter
G1 X211.295 Y166.767 E.0189 ; perimeter
G1 X210.969 Y166.494 E.01886 ; perimeter
G1 X210.703 Y166.161 E.0189 ; perimeter
G1 X210.509 Y165.782 E.01888 ; perimeter
G1 X210.394 Y165.372 E.01889 ; perimeter
G1 X210.371 Y165.064 E.0137 ; perimeter
M204 S1000 ; adjust acceleration
G1 X210.716 Y164.982 F10800 ; move to first perimeter point
M204 S800 ; adjust acceleration
;TYPE:External perimeter
G1 F1200
G1 X210.759 Y164.617 E.0163 ; perimeter
G1 X210.963 Y164.097 E.02478 ; perimeter
G1 X211.204 Y163.773 E.01791 ; perimeter
G1 X211.473 Y163.541 E.01576 ; perimeter
G1 X211.782 Y163.366 E.01575 ; perimeter
G1 X212.12 Y163.256 E.01577 ; perimeter
G1 X212.473 Y163.216 E.01576 ; perimeter
G1 X212.827 Y163.246 E.01576 ; perimeter
G1 X213.168 Y163.345 E.01575 ; perimeter
G1 X213.483 Y163.511 E.01579 ; perimeter
G1 X213.759 Y163.735 E.01577 ; perimeter
G1 X213.984 Y164.009 E.01573 ; perimeter
G1 X214.151 Y164.323 E.01577 ; perimeter
G1 X214.252 Y164.664 E.01577 ; perimeter
G1 X214.284 Y165.018 E.01577 ; perimeter
G1 X214.245 Y165.371 E.01575 ; perimeter
G1 X214.135 Y165.713 E.01593 ; perimeter
G1 X213.956 Y166.029 E.01611 ; perimeter
G1 X213.564 Y166.43 E.02487 ; perimeter
G1 X213.218 Y166.634 E.01782 ; perimeter
G1 X212.88 Y166.744 E.01577 ; perimeter
G1 X212.527 Y166.784 E.01576 ; perimeter
G1 X212.173 Y166.754 E.01576 ; perimeter
G1 X211.832 Y166.655 E.01575 ; perimeter
G1 X211.517 Y166.489 E.01579 ; perimeter
G1 X211.241 Y166.265 E.01577 ; perimeter
G1 X211.016 Y165.991 E.01573 ; perimeter
G1 X210.849 Y165.677 E.01577 ; perimeter
G1 X210.748 Y165.336 E.01577 ; perimeter
G1 X210.721 Y165.042 E.0131 ; perimeter
M204 S1000 ; adjust acceleration
G1 X210.4 Y164.794 F10800 ; move inwards before travel
;WIPE_START
G1 F8640
G1 X210.759 Y164.617 E-.09853 ; wipe and retract
G1 X210.963 Y164.097 E-.12898 ; wipe and retract
G1 X211.204 Y163.773 E-.09324 ; wipe and retract
G1 X211.473 Y163.541 E-.08202 ; wipe and retract
G1 X211.782 Y163.366 E-.082 ; wipe and retract
G1 X212.12 Y163.256 E-.08207 ; wipe and retract
G1 X212.473 Y163.216 E-.08203 ; wipe and retract
G1 X212.827 Y163.246 E-.08203 ; wipe and retract
G1 X213.168 Y163.345 E-.08199 ; wipe and retract
G1 X213.483 Y163.511 E-.08222 ; wipe and retract
G1 X213.759 Y163.735 E-.08208 ; wipe and retract
G1 X213.984 Y164.009 E-.08187 ; wipe and retract
G1 X214.151 Y164.323 E-.08212 ; wipe and retract
G1 X214.252 Y164.664 E-.08212 ; wipe and retract
G1 X214.284 Y165.018 E-.08207 ; wipe and retract
G1 X214.245 Y165.371 E-.082 ; wipe and retract
G1 X214.228 Y165.423 E-.01263 ; wipe and retract
;WIPE_END
G1 Z.5 F720 ; lift Z
G1 X116.339 Y163.21 F10800 ; move to first perimeter point
G1 Z.3 F720 ; restore layer Z
G1 E1.4 F2100 ;  ; unretract
M204 S800 ; adjust acceleration
;TYPE:Perimeter
G1 F1200
G1 X116.798 Y162.984 E.02269 ; perimeter
G1 X117.353 Y162.871 E.02512 ; perimeter
G1 X117.86 Y162.89 E.0225 ; perimeter
G1 X118.331 Y163.029 E.02178 ; perimeter
G1 X118.705 Y163.233 E.0189 ; perimeter
G1 X119.031 Y163.506 E.01886 ; perimeter
G1 X119.297 Y163.839 E.0189 ; perimeter
G1 X119.491 Y164.218 E.01888 ; perimeter
G1 X119.606 Y164.628 E.01889 ; perimeter
G1 X119.638 Y165.053 E.0189 ; perimeter
G1 X119.585 Y165.476 E.01891 ; perimeter
G1 X119.45 Y165.88 E.01889 ; perimeter
G1 X119.237 Y166.248 E.01886 ; perimeter
G1 X118.955 Y166.568 E.01892 ; perimeter
G1 X118.615 Y166.825 E.0189 ; perimeter
G1 X118.232 Y167.01 E.01887 ; perimeter
G1 X117.78 Y167.116 E.02059 ; perimeter
G1 X117.221 Y167.116 E.02479 ; perimeter
G1 X116.669 Y166.971 E.02531 ; perimeter
G1 X116.295 Y166.767 E.0189 ; perimeter
G1 X115.969 Y166.494 E.01886 ; perimeter
G1 X115.703 Y166.161 E.0189 ; perimeter
G1 X115.509 Y165.782 E.01888 ; perimeter
G1 X115.394 Y165.372 E.01889 ; perimeter
G1 X115.362 Y164.947 E.0189 ; perimeter
G1 X115.415 Y164.524 E.01891 ; perimeter
G1 X115.55 Y164.121 E.01885 ; perimeter
G1 X115.763 Y163.752 E.0189 ; perimeter
G1 X116.045 Y163.432 E.01892 ; perimeter
G1 X116.291 Y163.246 E.01368 ; perimeter
M204 S1000 ; adjust acceleration
G1 X116.546 Y163.492 F10800 ; move to first perimeter point
M204 S800 ; adjust acceleration
;TYPE:External perimeter
G1 F1200
G1 X116.87 Y163.333 E.01601 ; perimeter
G1 X117.424 Y163.219 E.02509 ; perimeter
G1 X117.827 Y163.246 E.01792 ; perimeter
