; generated by PrusaSlicer 2.6.0 on 2023-08-11 at 16:27:44 UTC


;
;
; 

; external perimeters extrusion width = 0.60mm
; perimeters extrusion width = 0.50mm
; infill extrusion width = 0.50mm
; solid infill extrusion width = 0.50mm
; top infill extrusion width = 0.45mm
; first layer extrusion width = 0.42mm

M73 P0 R142
M73 Q0 S145
M201 X1000 Y1000 Z200 E5000 ; sets maximum accelerations, mm/sec^2
M203 X200 Y200 Z12 E120 ; sets maximum feedrates, mm / sec
M204 S1250 T1250 ; sets acceleration (S) and retract acceleration (R), mm/sec^2
M205 X8.00 Y8.00 Z0.40 E4.50 ; sets the jerk limits, mm/sec
M205 S0 T0 ; sets the minimum extruding and travel feed rate, mm/sec
;TYPE:Custom
M862.3 P "MK3S" ; printer model check
M862.1 P0.4 ; nozzle diameter check
M115 U3.12.2 ; tell printer latest fw version
G90 ; use absolute coordinates
M83 ; extruder relative mode
M104 S240 ; set extruder temp
M140 S95 ; set bed temp
M190 S95 ; wait for bed temp
M109 S240 ; wait for extruder temp
G28 W ; home all without mesh bed level
G80 ; mesh bed leveling

G1 Z0.2 F720
G1 Y-3 F1000 ; go outside print area
G92 E0
G1 X60 E9 F1000 ; intro line
G1 X100 E12.5 F1000 ; intro line

G92 E0
M221 S95

; Don't change E values below. Excessive value can damage the printer.

M907 E538 ; set extruder motor current
G21 ; set units to millimeters
G90 ; use absolute coordinates
M83 ; use relative distances for extrusion
M900 K0.08 ; Filament gcode LA 1.5
M900 K45 ; Filament gcode LA 1.0
M107 ; disable fan
;LAYER_CHANGE
;Z:0.3
;HEIGHT:0.3
;BEFORE_LAYER_CHANGE
G92 E0.0
;0.3


G1 E-1.4 F2100 ; retract
G1 Z.2 F720 ; lift Z
G1 Z.3 ; move to next layer (0)
;AFTER_LAYER_CHANGE
;0.3
G1 Z.5 ; lift Z
G1 X16.717 Y38.543 F10800 ; move to first skirt point
G1 Z.3 F720 ; restore layer Z
G1 E1.4 F2100 ;  ; unretract
M204 S800 ; adjust acceleration
;TYPE:Skirt/Brim
;WIDTH:0.42
G1 F1200
G1 X17.482 Y38.283 E.03584 ; skirt
G1 X19 Y38.084 E.06791 ; skirt
G1 X231.08 Y38.085 E9.40677 ; skirt
G1 X232.282 Y38.225 E.05367 ; skirt
M73 Q0 S144
G1 X233.283 Y38.543 E.04659 ; skirt
G1 X234.345 Y39.121 E.05363 ; skirt
G1 X235.138 Y39.774 E.04556 ; skirt
G1 X235.879 Y40.655 E.05106 ; skirt
G1 X236.457 Y41.717 E.05363 ; skirt
G1 X236.775 Y42.718 E.04659 ; skirt
G1 X236.915 Y43.92 E.05367 ; skirt
G1 X236.916 Y166.058 E5.41741 ; skirt
G1 X236.724 Y167.493 E.06422 ; skirt
G1 X236.487 Y168.21 E.03349 ; skirt
G1 X236.125 Y168.954 E.0367 ; skirt
G1 X235.224 Y170.142 E.06613 ; skirt
G1 X234.091 Y171.044 E.06423 ; skirt
G1 X233.477 Y171.372 E.03088 ; skirt
G1 X232.662 Y171.678 E.03861 ; skirt
G1 X231.811 Y171.86 E.0386 ; skirt
G1 X231 Y171.916 E.03606 ; skirt
G1 X19 Y171.916 E9.40322 ; skirt
G1 X17.482 Y171.717 E.06791 ; skirt
G1 X16.717 Y171.457 E.03584 ; skirt
G1 X15.995 Y171.096 E.0358 ; skirt
G1 X14.862 Y170.226 E.06336 ; skirt
G1 X14.361 Y169.67 E.0332 ; skirt
G1 X13.904 Y169.005 E.03579 ; skirt
G1 X13.543 Y168.283 E.0358 ; skirt
G1 X13.283 Y167.518 E.03584 ; skirt
G1 X13.084 Y166 E.06791 ; skirt
G1 X13.084 Y44 E5.41129 ; skirt
G1 X13.283 Y42.482 E.06791 ; skirt
G1 X13.543 Y41.717 E.03584 ; skirt
G1 X13.904 Y40.995 E.0358 ; skirt
G1 X14.361 Y40.33 E.03579 ; skirt
G1 X14.904 Y39.732 E.03583 ; skirt
G1 X15.995 Y38.904 E.06075 ; skirt
G1 X16.664 Y38.57 E.03317 ; skirt
M204 S1000 ; adjust acceleration
; printing object baseplate-Body.stl id:0 copy 0
;WIPE_START
G1 F8640
G1 X17.482 Y38.283 E-.20017 ; wipe and retract
G1 X19 Y38.084 E-.35351 ; wipe and retract
G1 X22.665 Y38.084 E-.84632 ; wipe and retract
;WIPE_END
G1 Z.5 F720 ; lift Z
G1 X18.463 Y42.085 F10800 ; move to first perimeter point
G1 Z.3 F720 ; restore layer Z
G1 E1.4 F2100 ;  ; unretract
M204 S800 ; adjust acceleration
;TYPE:Perimeter
;WIDTH:0.42
G1 F1200
G1 X19.041 Y42.006 E.02588 ; perimeter
G1 X231.132 Y42.012 E9.40725 ; perimeter
G1 X231.539 Y42.093 E.01841 ; perimeter
M73 P0 R141
G1 X231.971 Y42.274 E.02078 ; perimeter
G1 X232.302 Y42.507 E.01795 ; perimeter
G1 X232.578 Y42.803 E.01795 ; perimeter
G1 X232.788 Y43.149 E.01795 ; perimeter
G1 X232.933 Y43.568 E.01967 ; perimeter
G1 X232.994 Y44.093 E.02344 ; perimeter
G1 X232.994 Y165.964 E5.40556 ; perimeter
G1 X232.93 Y166.484 E.02324 ; perimeter
G1 X232.679 Y167.063 E.02799 ; perimeter
G1 X232.382 Y167.412 E.02033 ; perimeter
G1 X232.024 Y167.709 E.02063 ; perimeter
G1 X231.497 Y167.928 E.02531 ; perimeter
G1 X230.964 Y167.994 E.02382 ; perimeter
G1 X19.141 Y167.994 E9.39536 ; perimeter
G1 X18.603 Y167.95 E.02394 ; perimeter
M73 Q0 S143
G1 X18.085 Y167.766 E.02438 ; perimeter
G1 X17.643 Y167.453 E.02402 ; perimeter
G1 X17.301 Y167.033 E.02402 ; perimeter
G1 X17.085 Y166.537 E.024 ; perimeter
G1 X17.006 Y165.959 E.02588 ; perimeter
G1 X17.006 Y44.141 E5.40321 ; perimeter
G1 X17.05 Y43.603 E.02394 ; perimeter
G1 X17.234 Y43.085 E.02438 ; perimeter
G1 X17.547 Y42.643 E.02402 ; perimeter
G1 X17.967 Y42.301 E.02402 ; perimeter
G1 X18.408 Y42.109 E.02133 ; perimeter
M204 S1000 ; adjust acceleration
G1 X18.367 Y41.739 F10800 ; move to first perimeter point
M204 S800 ; adjust acceleration
;TYPE:External perimeter
G1 F1200
G1 X19.017 Y41.65 E.0291 ; perimeter
G1 X230.913 Y41.656 E9.3986 ; perimeter
G1 X231.296 Y41.675 E.01701 ; perimeter
M73 P1 R141
M73 Q1 S143
G1 X231.936 Y41.846 E.02938 ; perimeter
G1 X232.354 Y42.081 E.02127 ; perimeter
G1 X232.716 Y42.397 E.02131 ; perimeter
G1 X233.006 Y42.78 E.02131 ; perimeter
G1 X233.213 Y43.214 E.02133 ; perimeter
G1 X233.327 Y43.684 E.02145 ; perimeter
G1 X233.35 Y44.093 E.01817 ; perimeter
G1 X233.35 Y165.986 E5.40654 ; perimeter
G1 X233.278 Y166.571 E.02614 ; perimeter
G1 X233.13 Y166.953 E.01817 ; perimeter
G1 X232.889 Y167.396 E.02237 ; perimeter
G1 X232.487 Y167.818 E.02585 ; perimeter
G1 X232.053 Y168.092 E.02277 ; perimeter
G1 X231.575 Y168.277 E.02273 ; perimeter
G1 X230.986 Y168.35 E.02632 ; perimeter
G1 X19.141 Y168.35 E9.39633 ; perimeter
G1 X18.525 Y168.299 E.02742 ; perimeter
M73 P1 R140
G1 X17.92 Y168.084 E.02848 ; perimeter
G1 X17.398 Y167.716 E.02833 ; perimeter
G1 X16.994 Y167.22 E.02837 ; perimeter
G1 X16.739 Y166.633 E.02839 ; perimeter
G1 X16.65 Y165.983 E.0291 ; perimeter
G1 X16.65 Y44.141 E5.40427 ; perimeter
G1 X16.701 Y43.525 E.02742 ; perimeter
G1 X16.916 Y42.92 E.02848 ; perimeter
G1 X17.284 Y42.398 E.02833 ; perimeter
G1 X17.78 Y41.994 E.02837 ; perimeter
G1 X18.312 Y41.763 E.02573 ; perimeter
M204 S1000 ; adjust acceleration
G1 X18.652 Y42.019 F10800 ; move inwards before travel
;WIPE_START
G1 F8640
G1 X19.017 Y41.65 E-.16486 ; wipe and retract
G1 X24.366 Y41.65 E-1.23514 ; wipe and retract
;WIPE_END
G1 Z.5 F720 ; lift Z
G1 X174.718 Y108.745 F10800 ; move to first perimeter point
G1 Z.3 F720 ; restore layer Z
G1 E1.4 F2100 ;  ; unretract
M204 S800 ; adjust acceleration
;TYPE:Perimeter
G1 F1200
G1 X174.032 Y108.637 E.0308 ; perimeter
G1 X173.331 Y108.373 E.03322 ; perimeter
G1 X172.695 Y107.975 E.03328 ; perimeter
G1 X172.151 Y107.46 E.03323 ; perimeter
G1 X171.721 Y106.846 E.03325 ; perimeter
G1 X171.42 Y106.16 E.03323 ; perimeter
G1 X171.261 Y105.428 E.03322 ; perimeter
G1 X171.25 Y104.678 E.03327 ; perimeter
G1 X171.388 Y103.942 E.03321 ; perimeter
G1 X171.67 Y103.247 E.03327 ; perimeter
G1 X172.083 Y102.622 E.03323 ; perimeter
G1 X172.612 Y102.091 E.03325 ; perimeter
G1 X173.236 Y101.676 E.03324 ; perimeter
G1 X173.93 Y101.392 E.03326 ; perimeter
G1 X174.839 Y101.241 E.04087 ; perimeter
G1 X175.601 Y101.285 E.03385 ; perimeter
G1 X176.325 Y101.478 E.03323 ; perimeter
G1 X176.997 Y101.81 E.03325 ; perimeter
G1 X177.589 Y102.269 E.03323 ; perimeter
G1 X178.079 Y102.836 E.03324 ; perimeter
G1 X178.447 Y103.489 E.03325 ; perimeter
G1 X178.678 Y104.202 E.03324 ; perimeter
G1 X178.763 Y104.947 E.03326 ; perimeter
G1 X178.699 Y105.694 E.03325 ; perimeter
G1 X178.488 Y106.413 E.03324 ; perimeter
G1 X178.139 Y107.076 E.03323 ; perimeter
G1 X177.654 Y107.67 E.03401 ; perimeter
G1 X177.086 Y108.132 E.03248 ; perimeter
G1 X176.424 Y108.484 E.03326 ; perimeter
G1 X175.705 Y108.697 E.03326 ; perimeter
G1 X174.778 Y108.755 E.0412 ; perimeter
M204 S1000 ; adjust acceleration
G1 X174.767 Y108.401 F10800 ; move to first perimeter point
M204 S800 ; adjust acceleration
;TYPE:External perimeter
G1 F1200
G1 X174.094 Y108.287 E.03028 ; perimeter
G1 X173.46 Y108.042 E.03015 ; perimeter
G1 X172.888 Y107.676 E.03012 ; perimeter
G1 X172.4 Y107.205 E.03008 ; perimeter
G1 X172.014 Y106.646 E.03013 ; perimeter
G1 X171.747 Y106.022 E.0301 ; perimeter
G1 X171.609 Y105.357 E.03012 ; perimeter
G1 X171.606 Y104.678 E.03012 ; perimeter
G1 X171.737 Y104.012 E.03011 ; perimeter
G1 X171.997 Y103.385 E.03011 ; perimeter
G1 X172.377 Y102.822 E.03013 ; perimeter
G1 X172.861 Y102.346 E.03011 ; perimeter
G1 X173.429 Y101.974 E.03012 ; perimeter
G1 X174.06 Y101.723 E.03012 ; perimeter
G1 X174.893 Y101.593 E.03739 ; perimeter
G1 X175.575 Y101.64 E.03032 ; perimeter
G1 X176.229 Y101.82 E.03009 ; perimeter
G1 X176.835 Y102.127 E.03013 ; perimeter
G1 X177.368 Y102.547 E.0301 ; perimeter
G1 X177.807 Y103.065 E.03012 ; perimeter
G1 X178.135 Y103.659 E.0301 ; perimeter
G1 X178.338 Y104.307 E.03012 ; perimeter
G1 X178.409 Y104.982 E.0301 ; perimeter
G1 X178.345 Y105.658 E.03012 ; perimeter
G1 X178.148 Y106.308 E.03013 ; perimeter
G1 X177.827 Y106.906 E.0301 ; perimeter
G1 X177.389 Y107.433 E.03039 ; perimeter
G1 X176.865 Y107.854 E.02981 ; perimeter
G1 X176.262 Y108.167 E.03013 ; perimeter
G1 X175.609 Y108.354 E.03013 ; perimeter
G1 X174.827 Y108.398 E.03474 ; perimeter
M204 S1000 ; adjust acceleration
G1 X174.547 Y108.735 F10800 ; move inwards before travel
;WIPE_START
G1 F8640
G1 X174.094 Y108.287 E-.17118 ; wipe and retract
G1 X173.46 Y108.042 E-.15694 ; wipe and retract
G1 X172.888 Y107.676 E-.1568 ; wipe and retract
G1 X172.4 Y107.205 E-.1566 ; wipe and retract
G1 X172.014 Y106.646 E-.15686 ; wipe and retract
G1 X171.747 Y106.022 E-.15672 ; wipe and retract
G1 X171.609 Y105.357 E-.15682 ; wipe and retract
G1 X171.606 Y104.678 E-.15678 ; wipe and retract
G1 X171.716 Y104.12 E-.1313 ; wipe and retract
;WIPE_END
G1 Z.5 F720 ; lift Z
G1 X194.134 Y122.996 F10800 ; move to first perimeter point
G1 Z.3 F720 ; restore layer Z
G1 E1.4 F2100 ;  ; unretract
M204 S800 ; adjust acceleration
;TYPE:Perimeter
G1 F1200
G1 X194.072 Y123.513 E.0231 ; perimeter
G1 X193.868 Y124.033 E.02478 ; perimeter
G1 X193.531 Y124.493 E.02529 ; perimeter
G1 X193.205 Y124.767 E.01889 ; perimeter
G1 X192.831 Y124.971 E.0189 ; perimeter
G1 X192.424 Y125.096 E.01888 ; perimeter
G1 X192 Y125.139 E.0189 ; perimeter
G1 X191.576 Y125.096 E.0189 ; perimeter
G1 X191.169 Y124.971 E.01888 ; perimeter
G1 X190.795 Y124.767 E.0189 ; perimeter
G1 X190.445 Y124.462 E.02059 ; perimeter
G1 X190.119 Y124.009 E.02475 ; perimeter
G1 X189.915 Y123.476 E.02531 ; perimeter
G1 X189.862 Y123.054 E.01886 ; perimeter
G1 X189.894 Y122.629 E.0189 ; perimeter
G1 X190.009 Y122.219 E.01889 ; perimeter
G1 X190.203 Y121.84 E.01888 ; perimeter
G1 X190.422 Y121.553 E.01601 ; perimeter
G1 X190.795 Y121.233 E.0218 ; perimeter
G1 X191.169 Y121.029 E.0189 ; perimeter
G1 X191.576 Y120.904 E.01888 ; perimeter
G1 X192 Y120.861 E.0189 ; perimeter
G1 X192.424 Y120.904 E.0189 ; perimeter
G1 X192.831 Y121.029 E.01888 ; perimeter
G1 X193.205 Y121.233 E.0189 ; perimeter
G1 X193.531 Y121.506 E.01886 ; perimeter
G1 X193.797 Y121.839 E.0189 ; perimeter
G1 X193.991 Y122.218 E.01888 ; perimeter
G1 X194.106 Y122.628 E.01889 ; perimeter
G1 X194.129 Y122.936 E.0137 ; perimeter
M204 S1000 ; adjust acceleration
G1 X193.784 Y123.018 F10800 ; move to first perimeter point
M204 S800 ; adjust acceleration
;TYPE:External perimeter
G1 F1200
G1 X193.741 Y123.383 E.0163 ; perimeter
G1 X193.537 Y123.903 E.02478 ; perimeter
G1 X193.296 Y124.227 E.01791 ; perimeter
G1 X193.027 Y124.459 E.01576 ; perimeter
G1 X192.718 Y124.634 E.01575 ; perimeter
G1 X192.38 Y124.744 E.01577 ; perimeter
G1 X192.027 Y124.784 E.01576 ; perimeter
G1 X191.673 Y124.754 E.01576 ; perimeter
G1 X191.332 Y124.655 E.01575 ; perimeter
G1 X191.017 Y124.489 E.01579 ; perimeter
G1 X190.734 Y124.255 E.01629 ; perimeter
G1 X190.407 Y123.801 E.02482 ; perimeter
G1 X190.266 Y123.423 E.01789 ; perimeter
G1 X190.217 Y123.071 E.01576 ; perimeter
G1 X190.238 Y122.717 E.01573 ; perimeter
G1 X190.329 Y122.373 E.01578 ; perimeter
G1 X190.487 Y122.054 E.01579 ; perimeter
G1 X190.688 Y121.789 E.01475 ; perimeter
G1 X190.973 Y121.541 E.01676 ; perimeter
G1 X191.282 Y121.366 E.01575 ; perimeter
G1 X191.62 Y121.256 E.01577 ; perimeter
G1 X191.973 Y121.216 E.01576 ; perimeter
G1 X192.327 Y121.246 E.01576 ; perimeter
G1 X192.668 Y121.345 E.01575 ; perimeter
G1 X192.983 Y121.511 E.01579 ; perimeter
G1 X193.259 Y121.735 E.01577 ; perimeter
G1 X193.484 Y122.009 E.01573 ; perimeter
G1 X193.651 Y122.323 E.01577 ; perimeter
G1 X193.752 Y122.664 E.01577 ; perimeter
G1 X193.779 Y122.958 E.0131 ; perimeter
M204 S1000 ; adjust acceleration
G1 X194.1 Y123.206 F10800 ; move inwards before travel
;WIPE_START
G1 F8640
G1 X193.741 Y123.383 E-.09853 ; wipe and retract
G1 X193.537 Y123.903 E-.12898 ; wipe and retract
G1 X193.296 Y124.227 E-.09324 ; wipe and retract
G1 X193.027 Y124.459 E-.08202 ; wipe and retract
G1 X192.718 Y124.634 E-.082 ; wipe and retract
G1 X192.38 Y124.744 E-.08207 ; wipe and retract
G1 X192.027 Y124.784 E-.08203 ; wipe and retract
G1 X191.673 Y124.754 E-.08203 ; wipe and retract
G1 X191.332 Y124.655 E-.08199 ; wipe and retract
G1 X191.017 Y124.489 E-.08222 ; wipe and retract
G1 X190.734 Y124.255 E-.08479 ; wipe and retract
G1 X190.407 Y123.801 E-.12919 ; wipe and retract
G1 X190.266 Y123.423 E-.09316 ; wipe and retract
G1 X190.217 Y123.071 E-.08206 ; wipe and retract
G1 X190.238 Y122.717 E-.08188 ; wipe and retract
G1 X190.275 Y122.575 E-.03381 ; wipe and retract
;WIPE_END
G1 Z.5 F720 ; lift Z
G1 X190.234 Y163.801 F10800 ; move to first perimeter point
G1 Z.3 F720 ; restore layer Z
G1 E1.4 F2100 ;  ; unretract
M204 S800 ; adjust acceleration
;TYPE:Perimeter
G1 F1200
G1 X190.57 Y163.415 E.0227 ; perimeter
G1 X191.037 Y163.095 E.02511 ; perimeter
G1 X191.55 Y162.907 E.02423 ; perimeter
G1 X192 Y162.861 E.02006 ; perimeter
G1 X192.424 Y162.904 E.0189 ; perimeter
G1 X192.831 Y163.029 E.01888 ; perimeter
G1 X193.205 Y163.233 E.0189 ; perimeter
G1 X193.531 Y163.506 E.01886 ; perimeter
G1 X193.797 Y163.839 E.0189 ; perimeter
G1 X193.991 Y164.218 E.01888 ; perimeter
G1 X194.117 Y164.74 E.02382 ; perimeter
G1 X194.138 Y165.053 E.01391 ; perimeter
G1 X194.085 Y165.476 E.01891 ; perimeter
G1 X193.95 Y165.879 E.01885 ; perimeter
G1 X193.797 Y166.16 E.01419 ; perimeter
G1 X193.32 Y166.678 E.03123 ; perimeter
G1 X192.831 Y166.971 E.02528 ; perimeter
G1 X192.424 Y167.096 E.01888 ; perimeter
G1 X192 Y167.139 E.0189 ; perimeter
G1 X191.576 Y167.096 E.0189 ; perimeter
G1 X191.169 Y166.971 E.01888 ; perimeter
G1 X190.795 Y166.767 E.0189 ; perimeter
G1 X190.469 Y166.494 E.01886 ; perimeter
G1 X190.203 Y166.161 E.0189 ; perimeter
G1 X190.009 Y165.782 E.01888 ; perimeter
G1 X189.894 Y165.372 E.01889 ; perimeter
G1 X189.862 Y164.947 E.0189 ; perimeter
G1 X189.915 Y164.524 E.01891 ; perimeter
G1 X190.05 Y164.12 E.01889 ; perimeter
G1 X190.204 Y163.853 E.01367 ; perimeter
M204 S1000 ; adjust acceleration
G1 X190.535 Y163.98 F10800 ; move to first perimeter point
M204 S800 ; adjust acceleration
;TYPE:External perimeter
G1 F1200
G1 X190.771 Y163.708 E.01597 ; perimeter
G1 X191.238 Y163.388 E.02511 ; perimeter
G1 X191.62 Y163.256 E.01793 ; perimeter
G1 X191.973 Y163.216 E.01576 ; perimeter
G1 X192.327 Y163.246 E.01576 ; perimeter
G1 X192.668 Y163.345 E.01575 ; perimeter
G1 X192.983 Y163.511 E.01579 ; perimeter
G1 X193.259 Y163.735 E.01577 ; perimeter
G1 X193.484 Y164.009 E.01573 ; perimeter
G1 X193.651 Y164.323 E.01577 ; perimeter
G1 X193.764 Y164.775 E.02067 ; perimeter
G1 X193.784 Y165.018 E.01081 ; perimeter
G1 X193.745 Y165.371 E.01575 ; perimeter
G1 X193.637 Y165.709 E.01574 ; perimeter
G1 X193.484 Y165.99 E.01419 ; perimeter
G1 X193.066 Y166.429 E.02689 ; perimeter
G1 X192.718 Y166.634 E.01791 ; perimeter
G1 X192.38 Y166.744 E.01577 ; perimeter
G1 X192.027 Y166.784 E.01576 ; perimeter
