; generated by PrusaSlicer 2.6.0 on 2023-08-11 at 22:00:08 UTC


;
;
; 

; external perimeters extrusion width = 0.60mm
; perimeters extrusion width = 0.50mm
; infill extrusion width = 0.50mm
; solid infill extrusion width = 0.50mm
; top infill extrusion width = 0.45mm
; first layer extrusion width = 0.42mm

M73 P0 R163
M73 Q0 S166
M201 X1000 Y1000 Z200 E5000 ; sets maximum accelerations, mm/sec^2
M203 X200 Y200 Z12 E120 ; sets maximum feedrates, mm / sec
M204 S1250 T1250 ; sets acceleration (S) and retract acceleration (R), mm/sec^2
M205 X8.00 Y8.00 Z0.40 E4.50 ; sets the jerk limits, mm/sec
M205 S0 T0 ; sets the minimum extruding and travel feed rate, mm/sec
;TYPE:Custom
M862.3 P "MK3S" ; printer model check
M862.1 P0.4 ; nozzle diameter check
M115 U3.12.2 ; tell printer latest fw version
G90 ; use absolute coordinates
M83 ; extruder relative mode
M104 S240 ; set extruder temp
M140 S95 ; set bed temp
M190 S95 ; wait for bed temp
M109 S240 ; wait for extruder temp
G28 W ; home all without mesh bed level
G80 ; mesh bed leveling

G1 Z0.2 F720
G1 Y-3 F1000 ; go outside print area
G92 E0
G1 X60 E9 F1000 ; intro line
G1 X100 E12.5 F1000 ; intro line

G92 E0
M221 S95

; Don't change E values below. Excessive value can damage the printer.

M907 E538 ; set extruder motor current
G21 ; set units to millimeters
G90 ; use absolute coordinates
M83 ; use relative distances for extrusion
M900 K0.08 ; Filament gcode LA 1.5
M900 K45 ; Filament gcode LA 1.0
M107 ; disable fan
;LAYER_CHANGE
;Z:0.3
;HEIGHT:0.3
;BEFORE_LAYER_CHANGE
G92 E0.0
;0.3


G1 E-1.4 F2100 ; retract
M73 Q0 S165
G1 Z.2 F720 ; lift Z
G1 Z.3 ; move to next layer (0)
;AFTER_LAYER_CHANGE
;0.3
G1 Z.5 ; lift Z
G1 X16.717 Y38.543 F10800 ; move to first skirt point
G1 Z.3 F720 ; restore layer Z
G1 E1.4 F2100 ;  ; unretract
M204 S800 ; adjust acceleration
;TYPE:Skirt/Brim
;WIDTH:0.42
G1 F1200
G1 X17.482 Y38.283 E.03584 ; skirt
G1 X19 Y38.084 E.06791 ; skirt
G1 X231.08 Y38.085 E9.40677 ; skirt
G1 X232.282 Y38.225 E.05367 ; skirt
G1 X233.283 Y38.543 E.04659 ; skirt
G1 X234.345 Y39.121 E.05363 ; skirt
G1 X235.138 Y39.774 E.04556 ; skirt
G1 X235.879 Y40.655 E.05106 ; skirt
G1 X236.457 Y41.717 E.05363 ; skirt
G1 X236.775 Y42.718 E.04659 ; skirt
G1 X236.915 Y43.92 E.05367 ; skirt
G1 X236.916 Y166.058 E5.41741 ; skirt
G1 X236.843 Y166.925 E.03859 ; skirt
G1 X236.678 Y167.662 E.0335 ; skirt
G1 X236.104 Y168.992 E.06425 ; skirt
G1 X235.224 Y170.142 E.06423 ; skirt
G1 X234.091 Y171.044 E.06423 ; skirt
G1 X233.477 Y171.372 E.03088 ; skirt
G1 X232.662 Y171.678 E.03861 ; skirt
G1 X231.811 Y171.86 E.0386 ; skirt
G1 X231 Y171.916 E.03606 ; skirt
G1 X19 Y171.916 E9.40322 ; skirt
G1 X17.482 Y171.717 E.06791 ; skirt
M73 P0 R162
G1 X16.717 Y171.457 E.03584 ; skirt
G1 X15.995 Y171.096 E.0358 ; skirt
G1 X14.904 Y170.268 E.06075 ; skirt
G1 X14.361 Y169.67 E.03583 ; skirt
G1 X13.904 Y169.005 E.03579 ; skirt
G1 X13.543 Y168.283 E.0358 ; skirt
G1 X13.283 Y167.518 E.03584 ; skirt
G1 X13.084 Y166 E.06791 ; skirt
G1 X13.084 Y44 E5.41129 ; skirt
G1 X13.283 Y42.482 E.06791 ; skirt
G1 X13.543 Y41.717 E.03584 ; skirt
G1 X13.904 Y40.995 E.0358 ; skirt
G1 X14.361 Y40.33 E.03579 ; skirt
G1 X14.862 Y39.774 E.0332 ; skirt
G1 X15.995 Y38.904 E.06336 ; skirt
G1 X16.664 Y38.57 E.03317 ; skirt
M204 S1000 ; adjust acceleration
; printing object headplate-Body.stl id:0 copy 0
;WIPE_START
G1 F8640
G1 X17.482 Y38.283 E-.20017 ; wipe and retract
G1 X19 Y38.084 E-.35351 ; wipe and retract
G1 X22.665 Y38.084 E-.84632 ; wipe and retract
;WIPE_END
G1 Z.5 F720 ; lift Z
G1 X18.463 Y42.085 F10800 ; move to first perimeter point
G1 Z.3 F720 ; restore layer Z
G1 E1.4 F2100 ;  ; unretract
M204 S800 ; adjust acceleration
;TYPE:Perimeter
;WIDTH:0.42
G1 F1200
G1 X19.041 Y42.006 E.02588 ; perimeter
G1 X231.132 Y42.012 E9.40725 ; perimeter
G1 X231.539 Y42.093 E.01841 ; perimeter
G1 X231.971 Y42.274 E.02078 ; perimeter
G1 X232.302 Y42.507 E.01795 ; perimeter
G1 X232.578 Y42.803 E.01795 ; perimeter
G1 X232.788 Y43.149 E.01795 ; perimeter
G1 X232.933 Y43.568 E.01967 ; perimeter
G1 X232.994 Y44.093 E.02344 ; perimeter
G1 X232.994 Y165.964 E5.40556 ; perimeter
G1 X232.93 Y166.484 E.02324 ; perimeter
G1 X232.755 Y166.938 E.02158 ; perimeter
G1 X232.467 Y167.347 E.02219 ; perimeter
G1 X232.024 Y167.709 E.02538 ; perimeter
G1 X231.497 Y167.928 E.02531 ; perimeter
G1 X230.964 Y167.994 E.02382 ; perimeter
G1 X19.141 Y167.994 E9.39536 ; perimeter
G1 X18.603 Y167.95 E.02394 ; perimeter
M73 Q0 S164
G1 X18.085 Y167.766 E.02438 ; perimeter
G1 X17.643 Y167.453 E.02402 ; perimeter
G1 X17.301 Y167.033 E.02402 ; perimeter
G1 X17.085 Y166.537 E.024 ; perimeter
G1 X17.006 Y165.959 E.02588 ; perimeter
G1 X17.006 Y44.141 E5.40321 ; perimeter
G1 X17.05 Y43.603 E.02394 ; perimeter
G1 X17.234 Y43.085 E.02438 ; perimeter
G1 X17.547 Y42.643 E.02402 ; perimeter
G1 X17.967 Y42.301 E.02402 ; perimeter
G1 X18.408 Y42.109 E.02133 ; perimeter
M204 S1000 ; adjust acceleration
G1 X18.367 Y41.739 F10800 ; move to first perimeter point
M204 S800 ; adjust acceleration
;TYPE:External perimeter
G1 F1200
G1 X19.017 Y41.65 E.0291 ; perimeter
G1 X230.913 Y41.656 E9.3986 ; perimeter
G1 X231.296 Y41.675 E.01701 ; perimeter
M73 P0 R161
G1 X231.936 Y41.846 E.02938 ; perimeter
G1 X232.354 Y42.081 E.02127 ; perimeter
G1 X232.716 Y42.397 E.02131 ; perimeter
G1 X233.006 Y42.78 E.02131 ; perimeter
G1 X233.213 Y43.214 E.02133 ; perimeter
G1 X233.327 Y43.684 E.02145 ; perimeter
G1 X233.35 Y44.093 E.01817 ; perimeter
G1 X233.35 Y165.986 E5.40654 ; perimeter
G1 X233.278 Y166.571 E.02614 ; perimeter
G1 X233.071 Y167.107 E.02549 ; perimeter
G1 X232.85 Y167.421 E.01703 ; perimeter
G1 X232.49 Y167.816 E.0237 ; perimeter
G1 X232.063 Y168.088 E.02246 ; perimeter
G1 X231.575 Y168.277 E.02321 ; perimeter
G1 X230.986 Y168.35 E.02632 ; perimeter
G1 X19.141 Y168.35 E9.39633 ; perimeter
G1 X18.525 Y168.299 E.02742 ; perimeter
M73 P1 R161
M73 Q1 S164
G1 X17.92 Y168.084 E.02848 ; perimeter
G1 X17.398 Y167.716 E.02833 ; perimeter
G1 X16.994 Y167.22 E.02837 ; perimeter
G1 X16.739 Y166.633 E.02839 ; perimeter
G1 X16.65 Y165.983 E.0291 ; perimeter
G1 X16.65 Y44.141 E5.40427 ; perimeter
G1 X16.701 Y43.525 E.02742 ; perimeter
G1 X16.916 Y42.92 E.02848 ; perimeter
G1 X17.284 Y42.398 E.02833 ; perimeter
G1 X17.78 Y41.994 E.02837 ; perimeter
G1 X18.312 Y41.763 E.02573 ; perimeter
M204 S1000 ; adjust acceleration
G1 X18.652 Y42.019 F10800 ; move inwards before travel
;WIPE_START
G1 F8640
G1 X19.017 Y41.65 E-.16486 ; wipe and retract
G1 X24.366 Y41.65 E-1.23514 ; wipe and retract
;WIPE_END
G1 Z.5 F720 ; lift Z
G1 X134.015 Y115.393 F10800 ; move to first perimeter point
G1 Z.3 F720 ; restore layer Z
G1 E1.4 F2100 ;  ; unretract
M204 S800 ; adjust acceleration
;TYPE:Perimeter
G1 F1200
G1 X134.669 Y114.595 E.04576 ; perimeter
G1 X135.31 Y114.069 E.03678 ; perimeter
G1 X136.129 Y113.619 E.04145 ; perimeter
G1 X137.019 Y113.339 E.04138 ; perimeter
G1 X137.997 Y113.234 E.04363 ; perimeter
G1 X222.004 Y113.234 E3.72611 ; perimeter
G1 X222.66 Y113.281 E.02917 ; perimeter
G1 X223.556 Y113.498 E.04089 ; perimeter
G1 X224.211 Y113.78 E.03163 ; perimeter
G1 X224.806 Y114.15 E.03108 ; perimeter
G1 X225.494 Y114.763 E.04087 ; perimeter
G1 X225.94 Y115.32 E.03165 ; perimeter
G1 X226.29 Y115.928 E.03112 ; perimeter
G1 X226.548 Y116.579 E.03106 ; perimeter
G1 X226.68 Y117.109 E.02423 ; perimeter
G1 X226.761 Y117.792 E.03051 ; perimeter
G1 X226.766 Y157.004 E1.73924 ; perimeter
G1 X226.719 Y157.66 E.02917 ; perimeter
G1 X226.612 Y158.196 E.02424 ; perimeter
G1 X226.417 Y158.787 E.0276 ; perimeter
G1 X226.183 Y159.281 E.02425 ; perimeter
G1 X225.85 Y159.807 E.02761 ; perimeter
G1 X225.397 Y160.341 E.03106 ; perimeter
G1 X224.87 Y160.803 E.03109 ; perimeter
G1 X224.083 Y161.284 E.04091 ; perimeter
G1 X223.421 Y161.548 E.03161 ; perimeter
G1 X222.738 Y161.707 E.0311 ; perimeter
G1 X222.004 Y161.766 E.03266 ; perimeter
G1 X137.996 Y161.766 E3.72615 ; perimeter
G1 X137.34 Y161.719 E.02917 ; perimeter
G1 X136.444 Y161.502 E.04089 ; perimeter
G1 X135.789 Y161.22 E.03163 ; perimeter
G1 X135.31 Y160.932 E.02479 ; perimeter
G1 X134.829 Y160.556 E.02708 ; perimeter
G1 X134.342 Y160.053 E.03105 ; perimeter
G1 X133.934 Y159.483 E.03109 ; perimeter
G1 X133.614 Y158.86 E.03107 ; perimeter
M73 Q1 S163
G1 X133.429 Y158.346 E.02423 ; perimeter
G1 X133.295 Y157.751 E.02705 ; perimeter
G1 X133.24 Y157.235 E.02302 ; perimeter
G1 X133.239 Y117.792 E1.74948 ; perimeter
G1 X133.367 Y116.893 E.04028 ; perimeter
G1 X133.527 Y116.384 E.02367 ; perimeter
G1 X133.794 Y115.802 E.0284 ; perimeter
G1 X133.986 Y115.446 E.01794 ; perimeter
M204 S1000 ; adjust acceleration
G1 X134.324 Y115.565 F10800 ; move to first perimeter point
M204 S800 ; adjust acceleration
;TYPE:External perimeter
G1 F1200
G1 X134.895 Y114.87 E.0399 ; perimeter
G1 X135.536 Y114.344 E.03678 ; perimeter
G1 X136.297 Y113.933 E.03836 ; perimeter
G1 X137.123 Y113.679 E.03833 ; perimeter
G1 X137.997 Y113.59 E.03897 ; perimeter
G1 X222.004 Y113.59 E3.72611 ; perimeter
G1 X222.634 Y113.636 E.02802 ; perimeter
G1 X223.469 Y113.843 E.03816 ; perimeter
G1 X224.067 Y114.105 E.02896 ; perimeter
G1 X224.616 Y114.45 E.02876 ; perimeter
G1 X225.256 Y115.026 E.03819 ; perimeter
G1 X225.659 Y115.539 E.02894 ; perimeter
G1 X225.981 Y116.103 E.02881 ; perimeter
G1 X226.216 Y116.707 E.02875 ; perimeter
G1 X226.328 Y117.153 E.0204 ; perimeter
G1 X226.405 Y117.792 E.02855 ; perimeter
G1 X226.41 Y157.004 E1.73924 ; perimeter
G1 X226.364 Y157.634 E.02802 ; perimeter
G1 X226.274 Y158.085 E.0204 ; perimeter
G1 X226.079 Y158.675 E.02756 ; perimeter
G1 X225.883 Y159.091 E.0204 ; perimeter
G1 X225.55 Y159.616 E.02758 ; perimeter
G1 X225.127 Y160.109 E.02881 ; perimeter
G1 X224.638 Y160.534 E.02874 ; perimeter
G1 X223.901 Y160.979 E.03819 ; perimeter
G1 X223.293 Y161.216 E.02894 ; perimeter
G1 X222.66 Y161.36 E.02879 ; perimeter
G1 X222.004 Y161.41 E.02918 ; perimeter
G1 X137.996 Y161.41 E3.72615 ; perimeter
G1 X137.366 Y161.364 E.02802 ; perimeter
G1 X136.531 Y161.157 E.03816 ; perimeter
G1 X135.933 Y160.895 E.02896 ; perimeter
G1 X135.529 Y160.652 E.02091 ; perimeter
G1 X135.048 Y160.276 E.02708 ; perimeter
G1 X134.6 Y159.808 E.02874 ; perimeter
G1 X134.224 Y159.278 E.02882 ; perimeter
G1 X133.931 Y158.7 E.02874 ; perimeter
G1 X133.776 Y158.267 E.0204 ; perimeter
G1 X133.642 Y157.671 E.0271 ; perimeter
G1 X133.595 Y157.004 E.02966 ; perimeter
G1 X133.595 Y117.792 E1.73924 ; perimeter
G1 X133.719 Y116.945 E.03797 ; perimeter
G1 X133.921 Y116.325 E.02892 ; perimeter
G1 X134.296 Y115.618 E.0355 ; perimeter
M204 S1000 ; adjust acceleration
G1 X134.15 Y115.205 F10800 ; move inwards before travel
;WIPE_START
G1 F8640
G1 X134.895 Y114.87 E-.22127 ; wipe and retract
G1 X135.536 Y114.344 E-.19146 ; wipe and retract
G1 X136.297 Y113.933 E-.19971 ; wipe and retract
G1 X137.123 Y113.679 E-.19954 ; wipe and retract
G1 X137.997 Y113.59 E-.20285 ; wipe and retract
G1 X139.665 Y113.59 E-.38517 ; wipe and retract
;WIPE_END
G1 Z.5 F720 ; lift Z
G1 X135.158 Y95.82 F10800 ; move to first perimeter point
G1 Z.3 F720 ; restore layer Z
G1 E1.4 F2100 ;  ; unretract
M204 S800 ; adjust acceleration
;TYPE:Perimeter
G1 F1200
G1 X134.659 Y95.397 E.02902 ; perimeter
G1 X134.205 Y94.88 E.03052 ; perimeter
G1 X133.914 Y94.452 E.02296 ; perimeter
G1 X133.614 Y93.86 E.02944 ; perimeter
G1 X133.44 Y93.384 E.02248 ; perimeter
G1 X133.295 Y92.751 E.0288 ; perimeter
G1 X133.24 Y92.235 E.02302 ; perimeter
G1 X133.239 Y51.792 E1.79384 ; perimeter
G1 X133.367 Y50.893 E.04028 ; perimeter
G1 X133.583 Y50.213 E.03165 ; perimeter
G1 X134.011 Y49.397 E.04087 ; perimeter
G1 X134.595 Y48.669 E.0414 ; perimeter
G1 X135.31 Y48.069 E.0414 ; perimeter
G1 X136.129 Y47.619 E.04145 ; perimeter
G1 X137.02 Y47.339 E.04143 ; perimeter
G1 X137.997 Y47.234 E.04358 ; perimeter
G1 X222.004 Y47.234 E3.72611 ; perimeter
G1 X222.66 Y47.281 E.02917 ; perimeter
M73 P1 R160
G1 X223.556 Y47.498 E.04089 ; perimeter
G1 X224.211 Y47.78 E.03163 ; perimeter
G1 X224.806 Y48.15 E.03108 ; perimeter
G1 X225.494 Y48.763 E.04087 ; perimeter
G1 X225.94 Y49.32 E.03165 ; perimeter
G1 X226.29 Y49.927 E.03108 ; perimeter
G1 X226.499 Y50.432 E.02424 ; perimeter
G1 X226.665 Y51.032 E.02761 ; perimeter
G1 X226.761 Y51.792 E.03398 ; perimeter
G1 X226.766 Y92.004 E1.78359 ; perimeter
G1 X226.719 Y92.66 E.02917 ; perimeter
G1 X226.612 Y93.196 E.02424 ; perimeter
G1 X226.417 Y93.787 E.0276 ; perimeter
G1 X226.183 Y94.281 E.02425 ; perimeter
G1 X225.85 Y94.807 E.02761 ; perimeter
G1 X225.397 Y95.341 E.03106 ; perimeter
G1 X224.87 Y95.803 E.03109 ; perimeter
G1 X224.083 Y96.284 E.04091 ; perimeter
G1 X223.421 Y96.548 E.03161 ; perimeter
G1 X222.738 Y96.707 E.0311 ; perimeter
G1 X222.004 Y96.766 E.03266 ; perimeter
G1 X137.996 Y96.766 E3.72615 ; perimeter
G1 X137.34 Y96.719 E.02917 ; perimeter
G1 X136.847 Y96.624 E.02227 ; perimeter
G1 X136.213 Y96.417 E.02958 ; perimeter
G1 X135.735 Y96.193 E.02341 ; perimeter
G1 X135.205 Y95.857 E.02783 ; perimeter
M204 S1000 ; adjust acceleration
G1 X135.384 Y95.55 F10800 ; move to first perimeter point
M204 S800 ; adjust acceleration
;TYPE:External perimeter
G1 F1200
G1 X134.891 Y95.127 E.02881 ; perimeter
G1 X134.474 Y94.647 E.0282 ; perimeter
G1 X134.211 Y94.255 E.02094 ; perimeter
G1 X133.931 Y93.7 E.02757 ; perimeter
G1 X133.776 Y93.267 E.0204 ; perimeter
G1 X133.642 Y92.673 E.02701 ; perimeter
G1 X133.595 Y92.004 E.02975 ; perimeter
G1 X133.595 Y51.792 E1.78359 ; perimeter
G1 X133.719 Y50.945 E.03797 ; perimeter
G1 X133.921 Y50.325 E.02892 ; perimeter
G1 X134.324 Y49.565 E.03816 ; perimeter
G1 X134.87 Y48.895 E.03834 ; perimeter
G1 X135.536 Y48.344 E.03834 ; perimeter
G1 X136.297 Y47.933 E.03836 ; perimeter
G1 X137.123 Y47.679 E.03833 ; perimeter
G1 X137.997 Y47.59 E.03897 ; perimeter
G1 X222.004 Y47.59 E3.72611 ; perimeter
G1 X222.634 Y47.636 E.02802 ; perimeter
G1 X223.469 Y47.843 E.03816 ; perimeter
G1 X224.067 Y48.105 E.02896 ; perimeter
G1 X224.616 Y48.45 E.02876 ; perimeter
G1 X225.256 Y49.026 E.03819 ; perimeter
G1 X225.659 Y49.539 E.02894 ; perimeter
G1 X225.981 Y50.102 E.02877 ; perimeter
G1 X226.156 Y50.527 E.02039 ; perimeter
G1 X226.322 Y51.127 E.02761 ; perimeter
G1 X226.405 Y51.792 E.02972 ; perimeter
G1 X226.41 Y92.004 E1.78359 ; perimeter
G1 X226.364 Y92.634 E.02802 ; perimeter
G1 X226.274 Y93.085 E.0204 ; perimeter
G1 X226.079 Y93.675 E.02756 ; perimeter
G1 X225.883 Y94.091 E.0204 ; perimeter
G1 X225.55 Y94.616 E.02758 ; perimeter
G1 X225.127 Y95.109 E.02881 ; perimeter
G1 X224.638 Y95.534 E.02874 ; perimeter
G1 X223.901 Y95.979 E.03819 ; perimeter
G1 X223.293 Y96.216 E.02894 ; perimeter
G1 X222.66 Y96.36 E.02879 ; perimeter
G1 X222.004 Y96.41 E.02918 ; perimeter
G1 X137.996 Y96.41 E3.72615 ; perimeter
G1 X137.366 Y96.364 E.02802 ; perimeter
G1 X136.915 Y96.274 E.0204 ; perimeter
G1 X136.325 Y96.079 E.02756 ; perimeter
G1 X135.909 Y95.883 E.0204 ; perimeter
G1 X135.434 Y95.582 E.02494 ; perimeter
M204 S1000 ; adjust acceleration
G1 X135.016 Y95.707 F10800 ; move inwards before travel
;WIPE_START
G1 F8640
G1 X134.891 Y95.127 E-.16358 ; wipe and retract
G1 X134.474 Y94.647 E-.14682 ; wipe and retract
G1 X134.211 Y94.255 E-.109 ; wipe and retract
G1 X133.931 Y93.7 E-.14354 ; wipe and retract
G1 X133.776 Y93.267 E-.10619 ; wipe and retract
G1 X133.642 Y92.673 E-.1406 ; wipe and retract
G1 X133.595 Y92.004 E-.15485 ; wipe and retract
G1 X133.595 Y90.118 E-.43542 ; wipe and retract
;WIPE_END
G1 Z.5 F720 ; lift Z
G1 X115.814 Y94.83 F10800 ; move to first perimeter point
G1 Z.3 F720 ; restore layer Z
G1 E1.4 F2100 ;  ; unretract
M204 S800 ; adjust acceleration
;TYPE:Perimeter
G1 F1200
G1 X115.397 Y95.341 E.02925 ; perimeter
G1 X114.87 Y95.803 E.03109 ; perimeter
G1 X114.452 Y96.086 E.02239 ; perimeter
G1 X113.86 Y96.386 E.02944 ; perimeter
G1 X113.384 Y96.56 E.02248 ; perimeter
G1 X112.738 Y96.707 E.02939 ; perimeter
G1 X112.004 Y96.766 E.03266 ; perimeter
G1 X27.996 Y96.766 E3.72615 ; perimeter
G1 X27.34 Y96.719 E.02917 ; perimeter
G1 X26.444 Y96.502 E.04089 ; perimeter
G1 X25.789 Y96.22 E.03163 ; perimeter
